app/src/main/assets/luts/moody.cube
# Created by: Polarr Inc. All rights reserved.
# Copyright Notice
# © 2025 Polarr Inc. All rights reserved. This content is created by Polarr Inc and is protected under applicable copyright laws and international treaties. It may not be sold for monetary gain or used for any commercial purposes without the explicit, written consent of Polarr Inc. Unauthorized use, reproduction, or distribution of this content is strictly prohibited. For inquiries or permission requests, please contact Polarr Inc. directly.
TITLE "reference44-1000046228"
DOMAIN_MIN 0 0 0
DOMAIN_MAX 1 1 1
LUT_3D_SIZE 25
0.033000584691762924 0.03391209989786148 0.026707502081990242
0.04398698732256889 0.03618093580007553 0.028442716225981712
0.05507492274045944 0.037489764392375946 0.029316473752260208
0.06630709767341614 0.03761278837919235 0.029125645756721497
0.07685278356075287 0.037728291004896164 0.02894647978246212
0.08738228678703308 0.03784361854195595 0.02876758761703968
0.10052411258220673 0.03942497819662094 0.028946690261363983
0.11429940909147263 0.04115455225110054 0.0291545782238245
0.12779784202575684 0.04284936562180519 0.029358286410570145
0.14585120975971222 0.04486359283328056 0.029604213312268257
0.17026008665561676 0.04730529710650444 0.029907137155532837
0.19353774189949036 0.04963383823633194 0.030196020379662514
0.21568407118320465 0.05184921249747276 0.030470864847302437
0.24124956130981445 0.054644811898469925 0.031764693558216095
0.2711423635482788 0.05825385823845863 0.034672483801841736
0.3002149164676666 0.06176387518644333 0.03750048205256462
0.3303903341293335 0.06540704518556595 0.04043576493859291
0.3591623604297638 0.06890986114740372 0.04327714070677757
0.38203394412994385 0.07218418270349503 0.04625343531370163
0.40528345108032227 0.0755126103758812 0.04927891120314598
0.42929235100746155 0.07894974946975708 0.05240320414304733
0.45406049489974976 0.08249559253454208 0.05562629923224449
0.47186803817749023 0.08670631051063538 0.05950961634516716
0.4861868619918823 0.09136029332876205 0.06382754445075989
0.5001335144042969 0.09589330852031708 0.06803324073553085
0.03390331193804741 0.041060373187065125 0.02811107039451599
0.04474855959415436 0.044185880571603775 0.0298722255975008
0.05590806528925896 0.04603751376271248 0.030684519559144974
0.06747517734766006 0.04631583020091057 0.03032396361231804
0.07833533734083176 0.04657713696360588 0.029985444620251656
0.08917883038520813 0.04683804139494896 0.029647445306181908
0.10297896713018417 0.048623666167259216 0.02987815998494625
0.11745764315128326 0.05056847631931305 0.03015267662703991
0.1316453218460083 0.05247420445084572 0.030421676114201546
0.15080545842647552 0.05477406829595566 0.03079371340572834
0.17691698670387268 0.05760592222213745 0.03131040558218956
0.20181839168071747 0.06030653789639473 0.03180314972996712
0.22550955414772034 0.062875896692276 0.03227194771170616
0.2520756125450134 0.06590837985277176 0.03367994725704193
0.2820201516151428 0.06954905390739441 0.03656449913978577
0.31114301085472107 0.0730898305773735 0.03936989977955818
0.3413706421852112 0.07676492631435394 0.04228172451257706
0.3701918423175812 0.0803040862083435 0.04511234536767006
0.39309176802635193 0.08370666950941086 0.048275697976350784
0.41637012362480164 0.0871654823422432 0.05149132013320923
0.44040876626968384 0.09073726832866669 0.05481196939945221
0.46520763635635376 0.09442200511693954 0.05823763459920883
0.483261376619339 0.09879884868860245 0.062233854085206985
0.4979492723941803 0.10363699495792389 0.06661757826805115
0.5122553706169128 0.10834937542676926 0.07088735699653625
0.03444558382034302 0.047803059220314026 0.029050778597593307
0.04499400407075882 0.051859017461538315 0.030846770852804184
0.0560695119202137 0.05433627963066101 0.031609658151865005
0.0678158700466156 0.054864056408405304 0.031095359474420547
0.07884430885314941 0.055359575897455215 0.03061249479651451
0.08985582739114761 0.05585433542728424 0.03013036958873272
0.10430137813091278 0.05788331478834152 0.03044704906642437
0.11947840452194214 0.06008078157901764 0.030824987217783928
0.13435040414333344 0.06223408132791519 0.031195329502224922
0.15455986559391022 0.06485142558813095 0.031738050282001495
0.18223972618579865 0.0680973157286644 0.0325247086584568
0.20863676071166992 0.07119277864694595 0.03327491134405136
0.23375087976455688 0.07413779199123383 0.03398865461349487
0.2611457407474518 0.07739558070898056 0.035522088408470154
0.29089680314064026 0.08100207149982452 0.038328561931848526
0.3198314905166626 0.08450959622859955 0.04105802997946739
0.34986385703086853 0.08815018832683563 0.04389103874564171
0.37849584221839905 0.09166216105222702 0.04665854200720787
0.4011950194835663 0.09513954073190689 0.04997441545128822
0.42426928877830505 0.09867437183856964 0.05334508419036865
0.44809719920158386 0.10232465714216232 0.05682584270834923
0.47267866134643555 0.10609038919210434 0.060416679829359055
0.4908145070075989 0.11058760434389114 0.06447316706180573
0.5057504177093506 0.11556996405124664 0.06886070966720581
0.5202980637550354 0.12042282521724701 0.07313420623540878
0.034960370510816574 0.05420396476984024 0.02994285337626934
0.04522700607776642 0.05914320796728134 0.03177191689610481
0.05622277408838272 0.062214385718107224 0.032487902790308
0.06813928484916687 0.06297897547483444 0.0318276546895504
0.07932748645544052 0.06369684636592865 0.03120775893330574
0.09049851447343826 0.06441360712051392 0.030588814988732338
0.10555676370859146 0.06667359918355942 0.030987100675702095
0.1213967353105545 0.0691109150648117 0.03146321699023247
0.1369183510541916 0.07149923592805862 0.03192976862192154
0.15812397003173828 0.07441797107458115 0.032634519040584564
0.1872926503419876 0.07805690914392471 0.03367746248841286
0.21510951220989227 0.08152720332145691 0.034672074019908905
0.2415744662284851 0.08482883125543594 0.03561834618449211
0.2697560787200928 0.08830049633979797 0.03727085143327713
0.29932349920272827 0.09187453985214233 0.040003206580877304
0.32807958126068115 0.09535050392150879 0.042660586535930634
0.35792654752731323 0.0989583358168602 0.04541877284646034
0.3863789141178131 0.10244450718164444 0.04812636226415634
0.4088875353336334 0.1059928834438324 0.05158703029155731
0.4317680597305298 0.10959988832473755 0.05510488152503967
0.4553959369659424 0.11332470178604126 0.05873763561248779
0.4797710180282593 0.11716730892658234 0.06248527020215988
0.49798479676246643 0.12177879363298416 0.06659897416830063
0.5131561160087585 0.12689806520938873 0.07099013775587082
0.5279331207275391 0.13188427686691284 0.07526716589927673
0.03547786548733711 0.06063855066895485 0.030839622020721436
0.04546123370528221 0.06646572798490524 0.03270193189382553
0.05637684464454651 0.07013393938541412 0.033370766788721085
0.06846440583467484 0.07113660126924515 0.03256380185484886
0.07981319725513458 0.07207797467708588 0.031806156039237976
0.09114457666873932 0.0730179101228714 0.03104967251420021
0.10681875795125961 0.07551013678312302 0.031529996544122696
0.1233251616358757 0.07818856090307236 0.03210480883717537
0.13949981331825256 0.08081314712762833 0.03266806900501251
0.1617068201303482 0.08403485268354416 0.033535707741975784
0.1923721581697464 0.0880689024925232 0.034836284816265106
0.22161632776260376 0.09191600233316422 0.036076586693525314
0.24943920969963074 0.09557612985372543 0.03725660964846611
0.27841174602508545 0.0992627963423729 0.03902881592512131
0.3077945411205292 0.10280421376228333 0.041686661541461945
0.3363710641860962 0.10624845325946808 0.044271573424339294
0.3660316467285156 0.10982335358858109 0.046954549849033356
0.39430347084999084 0.11328358948230743 0.049601905047893524
0.41662049293518066 0.11690332740545273 0.053208127617836
0.4393062889575958 0.12058288604021072 0.05687393993139267
0.46273306012153625 0.1243826150894165 0.060659486800432205
0.4869006872177124 0.12830251455307007 0.06456474214792252
0.5051928162574768 0.13302886486053467 0.06873596459627151
0.5206007957458496 0.1382857710123062 0.0731307715177536
0.5356083512306213 0.14340603351593018 0.07741134613752365
0.0359945148229599 0.0670626163482666 0.031734924763441086
0.04569508135318756 0.07377627491950989 0.03363042324781418
0.05653066188097 0.07804055511951447 0.034252189099788666
0.06878899037837982 0.07928088307380676 0.03329874575138092
0.08029811829328537 0.08044540882110596 0.032403573393821716
0.09178958833217621 0.08160814642906189 0.03150977939367294
0.10807868093252182 0.08433222770690918 0.032072000205516815
0.1252504289150238 0.08725136518478394 0.032745350152254105
0.14207707345485687 0.09011182934045792 0.03340516611933708
0.16528381407260895 0.09363601356744766 0.034435421228408813
0.1974433809518814 0.09806453436613083 0.03599320724606514
0.22811250388622284 0.10228782147169113 0.03747880086302757
0.25729110836982727 0.10630584508180618 0.038892194628715515
0.28705328702926636 0.11020717769861221 0.04078390449285507
0.3162517249584198 0.1137160211801529 0.04336736351251602
0.34464898705482483 0.11712858825922012 0.04587993025779724
0.3741235136985779 0.12067060172557831 0.04848781228065491
0.40221506357192993 0.12410494685173035 0.0510750375688076
0.4243408441543579 0.12779593467712402 0.05482657626271248
0.44683220982551575 0.1315479278564453 0.05864010751247406
0.4700582027435303 0.1354224532842636 0.06257819384336472
0.49401867389678955 0.13941951096057892 0.06664082407951355
0.512389063835144 0.14426055550575256 0.07086946070194244
0.5280333161354065 0.14965486526489258 0.07526790350675583
0.543271005153656 0.1549089550971985 0.07955201715230942
0.03673799708485603 0.07361367344856262 0.03267345204949379
0.046231113374233246 0.0812143012881279 0.03460972011089325
0.05698244273662567 0.08608164638280869 0.03520941734313965
0.06930883228778839 0.08757471293210983 0.034156106412410736
0.08088186383247375 0.08897653222084045 0.03316717594861984
0.09243713319301605 0.09037619084119797 0.03217976167798042
0.10930410772562027 0.09341933578252792 0.03281642869114876
0.12710656225681305 0.09667408466339111 0.033577390015125275
0.14455120265483856 0.09986341744661331 0.034323059022426605
0.16868974268436432 0.10377214848995209 0.03551372140645981
0.20222650468349457 0.10865893214941025 0.0373392328619957
0.23420901596546173 0.11331923305988312 0.039080142974853516
0.26463714241981506 0.1177530437707901 0.04073644056916237
0.2952163815498352 0.12195334583520889 0.04276859387755394
0.32447686791419983 0.1255532056093216 0.04531633108854294
0.35293444991111755 0.12905427813529968 0.0477941632270813
0.38247156143188477 0.13268817961215973 0.05036598816514015
0.4106138348579407 0.13621416687965393 0.0529274046421051
0.4326287508010864 0.1400461345911026 0.05680280923843384
0.4550074636936188 0.14394143223762512 0.060742251574993134
0.47811710834503174 0.14796395599842072 0.0648103579878807
0.5019575357437134 0.15211369097232819 0.06900712102651596
0.520376443862915 0.15707503259181976 0.07329689711332321
0.5361627340316772 0.16257412731647491 0.07771753519773483
0.5515386462211609 0.16793027520179749 0.08202328532934189
0.03945738449692726 0.08131971955299377 0.03399483114480972
0.04939582571387291 0.08981867879629135 0.03603801131248474
0.060025542974472046 0.09535467624664307 0.036832623183727264
0.07152853906154633 0.09723330289125443 0.036083467304706573
0.08232849836349487 0.09899710863828659 0.03538009524345398
0.09311188757419586 0.10075820982456207 0.03467780351638794
0.11023969948291779 0.10488035529851913 0.03532475233078003
0.12837685644626617 0.10929755121469498 0.03607918322086334
0.14614950120449066 0.11362596601247787 0.036818452179431915
0.1706370860338211 0.11863508820533752 0.03815160691738129
0.20454581081867218 0.12453775852918625 0.04033825173974037
0.2368830293416977 0.13016687333583832 0.0424235537648201
0.2676486372947693 0.13552241027355194 0.04440750926733017
0.299289733171463 0.1407562792301178 0.04676307365298271
0.33075204491615295 0.1455211490392685 0.04961064085364342
0.36135104298591614 0.15015527606010437 0.052380070090293884
0.39311081171035767 0.15496519207954407 0.055254559963941574
0.42331013083457947 0.15960437059402466 0.05808807164430618
0.44591188430786133 0.16418403387069702 0.061902016401290894
0.4688871204853058 0.16883939504623413 0.06577898561954498
0.4926127791404724 0.17364679276943207 0.06978258490562439
0.5170887112617493 0.17860622704029083 0.07391279190778732
0.5352987051010132 0.18373766541481018 0.07829640805721283
0.5504087805747986 0.18905901908874512 0.08290067315101624
0.5651260614395142 0.19424206018447876 0.08738525956869125
0.04222835227847099 0.08917193114757538 0.035341277718544006
0.05262056365609169 0.09858625382184982 0.03749339282512665
0.06312636286020279 0.10480359196662903 0.03848661854863167
0.07379034906625748 0.10707508772611618 0.03804738074541092
0.08380257338285446 0.10920775681734085 0.03763498738408089
0.09379943460226059 0.11133714765310287 0.03722322732210159
0.11119303107261658 0.1165587455034256 0.03788065165281296
0.12967126071453094 0.12216044217348099 0.03862842917442322
0.14777810871601105 0.12764954566955566 0.039361175149679184
0.17262136936187744 0.13377992808818817 0.04083952307701111
0.20690909028053284 0.1407177597284317 0.04339414834976196
0.2396077811717987 0.1473340541124344 0.0458303764462471
0.2707172632217407 0.15362879633903503 0.048148203641176224
0.30344030261039734 0.15991583466529846 0.050833314657211304
0.33714622259140015 0.16586782038211823 0.05398639664053917
0.3699272572994232 0.17165647447109222 0.05705295875668526
0.40395185351371765 0.17766474187374115 0.060235850512981415
0.43624722957611084 0.18343821167945862 0.06334661692380905
0.4594469666481018 0.18877975642681122 0.06709793955087662
0.4830300211906433 0.19420957565307617 0.07091125100851059
0.5073833465576172 0.1998167335987091 0.07484911382198334
0.5325068831443787 0.20560121536254883 0.07891150563955307
0.5505040287971497 0.2109059989452362 0.0833907425403595
0.5649250149726868 0.21604624390602112 0.08818210661411285
0.5789711475372314 0.2210528701543808 0.09284893423318863
0.04505092650651932 0.0971703827381134 0.03671279922127724
0.055905360728502274 0.10751712322235107 0.038975879549980164
0.06628493219614029 0.11442849040031433 0.04017141833901405
0.07609428465366364 0.11710017174482346 0.04004787281155586
0.08530410379171371 0.1196085661649704 0.039931874722242355
0.09449978917837143 0.12211310863494873 0.03981605917215347
0.11216411739587784 0.12845464050769806 0.04048415645956993
0.13098977506160736 0.13526290655136108 0.04122515022754669
0.1494370549917221 0.1419343203306198 0.0419512577354908
0.17464259266853333 0.14920684695243835 0.04357750341296196
0.2093164026737213 0.15719911456108093 0.046506959944963455
0.24238325655460358 0.16482096910476685 0.049300651997327805
0.27384305000305176 0.1720724105834961 0.05195857211947441
0.30766820907592773 0.1794322431087494 0.054979365319013596
0.34365952014923096 0.1865934431552887 0.05844365060329437
0.37866324186325073 0.19355814158916473 0.0618128776550293
0.4149948060512543 0.20078705251216888 0.06530991941690445
0.44942528009414673 0.2077159583568573 0.06870310753583908
0.4732341170310974 0.21383357048034668 0.07239063829183578
0.4974363446235657 0.22005227208137512 0.07613910734653473
0.5224290490150452 0.2264740914106369 0.08001001179218292
0.5482121706008911 0.23309899866580963 0.08400332182645798
0.5659924745559692 0.2385803461074829 0.08857996016740799
0.5797116160392761 0.2435360997915268 0.09356191754341125
0.5930741429328918 0.24836304783821106 0.09841437637805939
0.04764129966497421 0.1045108363032341 0.03797148913145065
0.05891993269324303 0.11571329087018967 0.04033641144633293
0.06918366253376007 0.12326158583164215 0.041717614978551865
0.07820867747068405 0.12630052864551544 0.041883792728185654
0.08668210357427597 0.12915374338626862 0.04203981161117554
0.09514252841472626 0.132002592086792 0.04219558835029602
0.11305531859397888 0.13937193155288696 0.042873479425907135
0.13219980895519257 0.14728747308254242 0.04360825568437576
0.15095952153205872 0.15504394471645355 0.04432826116681099
0.17649754881858826 0.16336464881896973 0.04609023779630661
0.21152567863464355 0.17232461273670197 0.049363695085048676
0.2449304163455963 0.18086932599544525 0.05248544365167618
0.27671167254447937 0.1889987587928772 0.05545547604560852
0.31154829263687134 0.1973431259393692 0.05878433957695961
0.349636971950531 0.20561406016349792 0.06253422796726227
0.386680543422699 0.21365806460380554 0.06618122011423111
0.42512932419776917 0.22200720012187958 0.06996656209230423
0.4615192413330078 0.2299964874982834 0.07361894100904465
0.4858870506286621 0.2368263155221939 0.07724793255329132
0.510657548904419 0.24376901984214783 0.08093689382076263
0.5362370610237122 0.2509384751319885 0.0847463384270668
0.5626254677772522 0.2583346664905548 0.08867625892162323
0.5802068114280701 0.2639780342578888 0.09334228932857513
0.5932818055152893 0.2687644958496094 0.09849914908409119
0.6060169339179993 0.27342653274536133 0.10352196544408798
0.05016128718852997 0.11165183037519455 0.03919598087668419
0.0618525855243206 0.12368673831224442 0.041659969836473465
0.07200362533330917 0.13185465335845947 0.04322179779410362
0.08026561886072159 0.13525089621543884 0.04366982355713844
0.08802266418933868 0.13843956589698792 0.04409046471118927
0.0957678034901619 0.1416233330965042 0.04451046139001846
0.11392230540513992 0.14999254047870636 0.045197874307632446
0.13337697088718414 0.15898530185222626 0.04592660069465637
0.1524406224489212 0.16779732704162598 0.04664067551493645
0.1783021092414856 0.17713774740695953 0.04853469505906105
0.2136749029159546 0.1870391070842743 0.052142802625894547
0.24740836024284363 0.1964815855026245 0.05558369681239128
0.27950233221054077 0.2054651528596878 0.058857355266809464
0.3153229355812073 0.21476730704307556 0.062485914677381516
0.3554520308971405 0.22411783039569855 0.06651365011930466
0.3944799602031708 0.23321178555488586 0.07043085992336273
0.43498843908309937 0.24265073239803314 0.07449667155742645
0.4732845723628998 0.25167155265808105 0.07840119302272797
0.49819618463516235 0.2591942846775055 0.08197323232889175
0.5235194563865662 0.2668412923812866 0.08560430258512497
0.5496698021888733 0.274738073348999 0.08935396373271942
0.5766471028327942 0.2828845679759979 0.09322220832109451
0.5940348505973816 0.2886855900287628 0.09797520190477371
0.6064832210540771 0.2933073341846466 0.10330221801996231
0.6186079978942871 0.2978089451789856 0.10849077254533768
0.05264274775981903 0.11880166828632355 0.04041450843214989
0.0647323727607727 0.13168159127235413 0.042979758232831955
0.07478582113981247 0.14048543572425842 0.04471956193447113
0.08233636617660522 0.14425992965698242 0.04544079303741455
0.08942543715238571 0.14780373871326447 0.04611794650554657
0.09650363028049469 0.15134210884571075 0.04679405689239502
0.11485981196165085 0.16067905724048615 0.04749998077750206
0.1345776617527008 0.17071250081062317 0.048233021050691605
0.15389922261238098 0.18054428696632385 0.04895133152604103
0.18004852533340454 0.19085964560508728 0.05097366124391556
0.21574679017066956 0.2016453593969345 0.05489204823970795
0.24979062378406525 0.2119312286376953 0.05862884223461151
0.28217989206314087 0.22171717882156372 0.06218402460217476
0.3189297616481781 0.23192466795444489 0.06609844416379929
0.3609858453273773 0.24230386316776276 0.0704045295715332
0.4018879234790802 0.2523982524871826 0.0745924636721611
0.44434162974357605 0.26287558674812317 0.07893926650285721
0.4844388961791992 0.2728797495365143 0.08309797197580338
0.5098787546157837 0.2810699939727783 0.08664077520370483
0.5357389450073242 0.2893955707550049 0.09024211764335632
0.5624438524246216 0.2979930639266968 0.09396108984947205
0.5899932384490967 0.306862473487854 0.09779766947031021
0.607210636138916 0.31282728910446167 0.10264091938734055
0.6190780401229858 0.31730902194976807 0.10812677443027496
0.630636990070343 0.32167428731918335 0.11347004026174545
0.05584617704153061 0.13096535205841064 0.042304717004299164
0.06825023144483566 0.1455645114183426 0.04509276524186134
0.07851026207208633 0.15583010017871857 0.047065116465091705
0.08613429963588715 0.1607501059770584 0.048031359910964966
0.09329236298799515 0.1653694063425064 0.04893854632973671
0.10043944418430328 0.16998162865638733 0.04984433948993683
0.11815270036458969 0.18014873564243317 0.05080103501677513
0.13716013729572296 0.19102680683135986 0.05179513618350029
0.15578556060791016 0.20168624818325043 0.0527692586183548
0.18154370784759521 0.212535098195076 0.05491460859775543
0.21731533110141754 0.22340254485607147 0.05875492841005325
0.25142911076545715 0.2337663322687149 0.062417272478342056
0.2838849425315857 0.2436264157295227 0.06590162217617035
0.3208482563495636 0.25406280159950256 0.06995496898889542
0.3633491098880768 0.26491430401802063 0.0747387707233429
0.40468376874923706 0.2754680812358856 0.07939130067825317
0.44758644700050354 0.2864221930503845 0.08422032743692398
0.4881209433078766 0.2968885600566864 0.08885379880666733
0.514062762260437 0.3055741786956787 0.0930260717868805
0.5404331684112549 0.31440332531929016 0.097267284989357
0.5676649212837219 0.32352086901664734 0.1016470268368721
0.5957579016685486 0.3329267203807831 0.10616526752710342
0.6132599711418152 0.3393159806728363 0.11123992502689362
0.6252753138542175 0.34416863322257996 0.11671437323093414
0.6369783282279968 0.3488951027393341 0.12204653769731522
0.059156544506549835 0.1435350626707077 0.04425802081823349
0.07188551872968674 0.1599108725786209 0.04727630317211151
0.08235903829336166 0.17168699204921722 0.04948897287249565
0.09005900472402573 0.17779074609279633 0.05070840194821358
0.09728837013244629 0.18352144956588745 0.051853299140930176
0.10450664162635803 0.189243346452713 0.0529964454472065
0.12155550718307495 0.20026832818984985 0.05421227961778641
0.13982881605625153 0.21201921999454498 0.05547615885734558
0.15773485600948334 0.22353394329547882 0.05671463534235954
0.18308880925178528 0.23493412137031555 0.05898711085319519
0.21893621981143951 0.24588599801063538 0.06274675577878952
0.2531222999095917 0.25633031129837036 0.06633216142654419
0.28564688563346863 0.2662670314311981 0.069743312895298
0.32283079624176025 0.27693992853164673 0.0739402323961258
0.3657912611961365 0.28827953338623047 0.07921768724918365
0.4075728952884674 0.2993079721927643 0.0843503326177597
0.4509395360946655 0.31075480580329895 0.08967768400907516
0.4919258952140808 0.3216988146305084 0.09480176866054535
0.5183863639831543 0.3308963477611542 0.09962451457977295
0.5452840924263 0.3402458727359772 0.10452695935964584
0.5730603337287903 0.3499007821083069 0.10958952456712723
0.6017150282859802 0.35986101627349854 0.11481219530105591
0.6195112466812134 0.36668890714645386 0.12012597173452377
0.6316794157028198 0.37192481756210327 0.12558864057064056
0.643531322479248 0.3770246207714081 0.13090932369232178
0.06257384270429611 0.15651081502437592 0.046274423599243164
0.07563823461532593 0.1747206598520279 0.049530379474163055
0.08633213490247726 0.1880560964345932 0.05199112370610237
0.09411049634218216 0.19538183510303497 0.053471919149160385
0.10141345858573914 0.2022598385810852 0.05486220866441727
0.10870521515607834 0.209127277135849 0.05625037103891373
0.12506824731826782 0.2210378497838974 0.05773371830582619
0.1425836980342865 0.23368977010250092 0.05927608534693718
0.15974712371826172 0.24608740210533142 0.06078745797276497
0.18468381464481354 0.2580567002296448 0.06319116801023483
0.22060947120189667 0.2690957188606262 0.06686753034591675
0.2548701763153076 0.2796231806278229 0.07037351280450821
0.28746575117111206 0.2896389663219452 0.07370910793542862
0.32487738132476807 0.3005560338497162 0.07805423438549042
0.3683122992515564 0.3123995065689087 0.08384128659963608
0.4105553925037384 0.3239179849624634 0.0894695520401001
0.4544009566307068 0.33587342500686646 0.09531132131814957
0.4958537817001343 0.34731051325798035 0.10094186663627625
