app/src/main/assets/luts/moody.cube
# Created by: Polarr Inc. All rights reserved.
# Copyright Notice
# © 2025 Polarr Inc. All rights reserved. This content is created by Polarr Inc and is protected under applicable copyright laws and international treaties. It may not be sold for monetary gain or used for any commercial purposes without the explicit, written consent of Polarr Inc. Unauthorized use, reproduction, or distribution of this content is strictly prohibited. For inquiries or permission requests, please contact Polarr Inc. directly.
TITLE "reference44-1000046228"
DOMAIN_MIN 0 0 0
DOMAIN_MAX 1 1 1
LUT_3D_SIZE 5
0.033000584691762924 0.03391209989786148 0.026707502081990242
0.10052411258220673 0.03942497819662094 0.028946690261363983
0.21568407118320465 0.05184921249747276 0.030470864847302437
0.38203394412994385 0.07218418270349503 0.04625343531370163
0.5001335144042969 0.09589330852031708 0.06803324073553085
0.03673799708485603 0.07361367344856262 0.03267345204949379
0.10930410772562027 0.09341933578252792 0.03281642869114876
0.26463714241981506 0.1177530437707901 0.04073644056916237
0.4326287508010864 0.1400461345911026 0.05680280923843384
0.5515386462211609 0.16793027520179749 0.08202328532934189
0.05264274775981903 0.11880166828632355 0.04041450843214989
0.11485981196165085 0.16067905724048615 0.04749998077750206
0.28217989206314087 0.22171717882156372 0.06218402460217476
0.5098787546157837 0.2810699939727783 0.08664077520370483
0.630636990070343 0.32167428731918335 0.11347004026174545
0.07090859115123749 0.18815849721431732 0.05119239538908005
0.1336357295513153 0.2716943919658661 0.0663224533200264
0.29190194606781006 0.3466428220272064 0.08338161557912827
0.5337356925010681 0.42079195380210876 0.12304949015378952
0.6667948961257935 0.47688642144203186 0.162372887134552
0.12508508563041687 0.25014781951904297 0.08266422152519226
0.21729502081871033 0.3841235339641571 0.11223886162042618
0.33380016684532166 0.48291540145874023 0.14235927164554596
0.5480203032493591 0.5472548007965088 0.1874278336763382
0.6844192147254944 0.6084635853767395 0.2527979612350464
0.03470723330974579 0.037579357624053955 0.07090511173009872
0.097569540143013 0.04340856522321701 0.06958300620317459
0.23144447803497314 0.062491293996572495 0.07182925939559937
0.4183315336704254 0.09442545473575592 0.08616165071725845
0.556813657283783 0.13766330480575562 0.11686491966247559
0.04168277233839035 0.08503148704767227 0.07595252990722656
0.1010502502322197 0.09643889218568802 0.08191891759634018
0.2727099657058716 0.12216243147850037 0.0880374163389206
0.46026724576950073 0.1532449573278427 0.09973584115505219
0.6130148768424988 0.19631631672382355 0.13451959192752838
0.06357745826244354 0.14750199019908905 0.08170024305582047
0.11555593460798264 0.17672216892242432 0.08853492140769958
0.28935950994491577 0.2284201830625534 0.09861449152231216
0.5356965065002441 0.3049742579460144 0.13725250959396362
0.677635908126831 0.36542418599128723 0.18645210564136505
0.08838092535734177 0.23583517968654633 0.09254055470228195
0.14386671781539917 0.3110659122467041 0.10625733435153961
0.2985372543334961 0.3712153136730194 0.12207099795341492
0.5582637786865234 0.44680655002593994 0.17153312265872955
0.7105889916419983 0.5223690867424011 0.24323122203350067
0.1575593799352646 0.3214055597782135 0.13524791598320007
0.24783135950565338 0.46002867817878723 0.1632719337940216
0.35105520486831665 0.5332292914390564 0.1949247568845749
0.57481849193573 0.5988968014717102 0.24013523757457733
0.7294983267784119 0.6623607873916626 0.3425404131412506
0.039622947573661804 0.05147890746593475 0.11713654547929764
0.09853304177522659 0.06664180755615234 0.13747991621494293
0.2537068724632263 0.08120577037334442 0.1580485850572586
0.4479863941669464 0.1170588806271553 0.19039200246334076
0.5784269571304321 0.1727699637413025 0.22336407005786896
0.04745695739984512 0.09077668935060501 0.15398427844047546
0.10055501759052277 0.10015244036912918 0.18080656230449677
0.27406319975852966 0.1262134313583374 0.2045918107032776
0.4776860475540161 0.16324900090694427 0.2268780618906021
0.6265345811843872 0.21444547176361084 0.26208722591400146
0.06970380991697311 0.1721283346414566 0.1718563288450241
0.11368940025568008 0.19510039687156677 0.19457721710205078
0.28160569071769714 0.244874507188797 0.22244229912757874
0.5467801690101624 0.33899086713790894 0.2709003984928131
0.6871296763420105 0.39742743968963623 0.31062763929367065
0.10270136594772339 0.28863728046417236 0.1929686963558197
0.15614162385463715 0.3438827693462372 0.21806718409061432
0.29670631885528564 0.3876504600048065 0.2374609112739563
0.5654094815254211 0.46958374977111816 0.29140305519104004
0.7207049131393433 0.5489041805267334 0.36145609617233276
0.1795799285173416 0.38745027780532837 0.22601594030857086
0.2708319127559662 0.4982319474220276 0.25631898641586304
0.37960246205329895 0.5588502883911133 0.28343692421913147
0.5827872157096863 0.6202982664108276 0.3388385772705078
0.7404035925865173 0.6778932213783264 0.4255126416683197
0.04768234118819237 0.07682545483112335 0.17061607539653778
0.10586156696081161 0.10262472927570343 0.21070949733257294
0.26628053188323975 0.13016168773174286 0.25339680910110474
0.4959142506122589 0.15678434073925018 0.30042269825935364
0.6107138991355896 0.19841350615024567 0.3404916226863861
0.056206114590168 0.10877277702093124 0.24969106912612915
0.10931206494569778 0.12572607398033142 0.29220154881477356
0.2779179513454437 0.15948863327503204 0.3280063569545746
0.5198737382888794 0.1969359815120697 0.36314526200294495
0.6535207629203796 0.24719330668449402 0.40397921204566956
0.07716973125934601 0.19352729618549347 0.2967747747898102
0.12007547914981842 0.21301215887069702 0.331131249666214
0.28123682737350464 0.2592906057834625 0.3840092420578003
0.5445249676704407 0.36164048314094543 0.4360646605491638
0.699461817741394 0.4248131513595581 0.471362829208374
0.11842873692512512 0.3264610469341278 0.33393624424934387
0.167270228266716 0.36790311336517334 0.37484288215637207
0.2967383861541748 0.41300472617149353 0.41303783655166626
0.5582308769226074 0.5012252330780029 0.47289925813674927
0.7292019128799438 0.5888124704360962 0.5304461121559143
0.2060622125864029 0.43563374876976013 0.3775845170021057
0.29087093472480774 0.5404608845710754 0.4307568371295929
0.42367103695869446 0.5910786390304565 0.4696575105190277
0.6177464723587036 0.6568230986595154 0.5357582569122314
0.7519719004631042 0.7067111134529114 0.5990361571311951
0.06763575226068497 0.12729930877685547 0.24661679565906525
0.134760782122612 0.16606201231479645 0.29693666100502014
0.2812340259552002 0.2030920386314392 0.33734914660453796
0.5141500234603882 0.2360461801290512 0.3880768418312073
0.635162889957428 0.258749783039093 0.41052111983299255
0.08876388520002365 0.17698286473751068 0.3331288993358612
0.15002138912677765 0.21612803637981415 0.3950805962085724
0.29340192675590515 0.2514205873012543 0.425061970949173
0.5384098887443542 0.2931593060493469 0.47252437472343445
0.6807249188423157 0.31915175914764404 0.49802589416503906
0.10980939865112305 0.2459661215543747 0.4023157060146332
0.16190625727176666 0.2778722643852234 0.4695568084716797
0.30034372210502625 0.31058982014656067 0.5115522742271423
0.551116406917572 0.39065873622894287 0.5537796020507812
0.7238297462463379 0.4523290991783142 0.5776847004890442
0.14291061460971832 0.3547033667564392 0.432772159576416
0.2024911642074585 0.40535032749176025 0.5073632001876831
0.3206230103969574 0.4458698630332947 0.5492385029792786
0.5650282502174377 0.5298206806182861 0.6142017841339111
0.7421882152557373 0.6275601983070374 0.659166157245636
0.23276029527187347 0.4542483389377594 0.47808974981307983
0.3277464807033539 0.5627471804618835 0.5707525014877319
0.44902947545051575 0.6141242980957031 0.6158537864685059
0.6295842528343201 0.6848875880241394 0.6858521699905396
0.7658660411834717 0.747744083404541 0.7419734001159668
