app/src/main/assets/luts/Muted Meadow.cube
# Created by: Polarr Inc. All rights reserved.
# Copyright Notice
# © 2025 Polarr Inc. All rights reserved. This content is created by Polarr Inc and is protected under applicable copyright laws and international treaties. It may not be sold for monetary gain or used for any commercial purposes without the explicit, written consent of Polarr Inc. Unauthorized use, reproduction, or distribution of this content is strictly prohibited. For inquiries or permission requests, please contact Polarr Inc. directly.
TITLE "1000045977-1000046228"
DOMAIN_MIN 0 0 0
DOMAIN_MAX 1 1 1
LUT_3D_SIZE 5
0.03424062952399254 0.01603313535451889 0.008080592378973961
0.19871211051940918 0.02704278752207756 0.013612139038741589
0.31530576944351196 0.03685517981648445 0.024335091933608055
0.42211970686912537 0.052470527589321136 0.04103516414761543
0.4987650215625763 0.07722802460193634 0.058854684233665466
0.055107153952121735 0.12705370783805847 0.011830494739115238
0.21029037237167358 0.14444443583488464 0.027734318748116493
0.35401755571365356 0.15796074271202087 0.052224885672330856
0.4723094701766968 0.17319388687610626 0.06876088678836823
0.5560688972473145 0.19301316142082214 0.08345748484134674
0.088829904794693 0.2006993442773819 0.028030937537550926
0.21659372746944427 0.25482502579689026 0.044358886778354645
0.3736044466495514 0.2821124196052551 0.07870353758335114
0.5144823789596558 0.30688151717185974 0.1031855046749115
0.6038755178451538 0.32896605134010315 0.1196872740983963
0.11221525073051453 0.2510009706020355 0.04830418527126312
0.2311767041683197 0.3493083715438843 0.06819041073322296
0.3796696960926056 0.39067962765693665 0.09634222835302353
0.527444064617157 0.4245466887950897 0.13191057741641998
0.6244025826454163 0.45477041602134705 0.1596936136484146
0.15519309043884277 0.2810584008693695 0.09254801273345947
0.29311057925224304 0.42192351818084717 0.12594641745090485
0.4084685444831848 0.48238685727119446 0.15432272851467133
0.5407293438911438 0.5251297354698181 0.19024085998535156
0.6333308219909668 0.5565903186798096 0.2329360991716385
0.03635856881737709 0.02444165199995041 0.09968255460262299
0.20200885832309723 0.03731800615787506 0.10442706197500229
0.337048202753067 0.055559732019901276 0.11351372301578522
0.45810556411743164 0.0850917249917984 0.1252221167087555
0.5505719780921936 0.12210262566804886 0.13929133117198944
0.06605426222085953 0.1537417322397232 0.104331836104393
0.20633327960968018 0.15974046289920807 0.11048988252878189
0.3673941493034363 0.16737885773181915 0.12332424521446228
0.502246618270874 0.1863761842250824 0.14069347083568573
0.6087887287139893 0.2124922126531601 0.15597228705883026
0.10961126536130905 0.24521318078041077 0.10704805701971054
0.21961279213428497 0.28306782245635986 0.1142665222287178
0.3851465582847595 0.2997327744960785 0.13431520760059357
0.5404600501060486 0.3282521963119507 0.1628492772579193
0.6464455127716064 0.3551482558250427 0.1855027675628662
0.13858778774738312 0.31457987427711487 0.11754091829061508
0.24680253863334656 0.3934241235256195 0.12960809469223022
0.3896788954734802 0.42065396904945374 0.14920026063919067
0.5485731363296509 0.454548180103302 0.18020226061344147
0.6623448133468628 0.4909765124320984 0.21535159647464752
0.1946137398481369 0.3662935495376587 0.1638592630624771
0.32357197999954224 0.48322421312332153 0.1865881383419037
0.4286353886127472 0.5413545370101929 0.21169470250606537
0.5651432275772095 0.5779242515563965 0.24167849123477936
0.672659695148468 0.609764814376831 0.2896021604537964
0.0529886819422245 0.06749114394187927 0.15945976972579956
0.2062588930130005 0.08024884760379791 0.175951287150383
0.3592471480369568 0.09050385653972626 0.19018496572971344
0.4907444715499878 0.11619865894317627 0.2079450637102127
0.5747553706169128 0.15436263382434845 0.22367256879806519
0.07817631214857101 0.1670193374156952 0.21965336799621582
0.2088591456413269 0.1834583729505539 0.23327195644378662
0.3708917796611786 0.1941622644662857 0.24200370907783508
0.5190244913101196 0.21073982119560242 0.25637632608413696
0.6239075660705566 0.23765382170677185 0.27019003033638
0.12829263508319855 0.2808294892311096 0.2310682088136673
0.22527696192264557 0.3179270327091217 0.24561181664466858
0.38118401169776917 0.33404967188835144 0.25699251890182495
0.5458794832229614 0.36143583059310913 0.2750385105609894
0.6565290689468384 0.3865971267223358 0.2956761121749878
0.16507084667682648 0.3761333227157593 0.23911355435848236
0.26107174158096313 0.4251122772693634 0.2559843063354492
0.39282581210136414 0.4489506185054779 0.2677248418331146
0.5534839034080505 0.48351961374282837 0.2892475426197052
0.6703685522079468 0.5213768482208252 0.31996771693229675
0.22312821447849274 0.432789146900177 0.2674616575241089
0.3435635268688202 0.513356626033783 0.28810322284698486
0.4570586681365967 0.5722784399986267 0.3107709288597107
0.5776012539863586 0.6054180264472961 0.34250953793525696
0.6831969618797302 0.6373493075370789 0.37034839391708374
0.07195635885000229 0.11226558685302734 0.2129901498556137
0.21254542469978333 0.14053025841712952 0.24006591737270355
0.3688550591468811 0.1591351330280304 0.2706150710582733
0.514451265335083 0.16948843002319336 0.2950940430164337
0.5956485271453857 0.18638765811920166 0.3104744255542755
0.09813448786735535 0.19431445002555847 0.30653125047683716
0.21859963238239288 0.21758624911308289 0.32541200518608093
0.37676313519477844 0.23738403618335724 0.34310466051101685
0.5383726358413696 0.25444769859313965 0.3568941354751587
0.644568920135498 0.27274516224861145 0.369996577501297
0.14364363253116608 0.30174365639686584 0.34495291113853455
0.23795992136001587 0.33482393622398376 0.3699239194393158
0.38171955943107605 0.36382755637168884 0.3901143968105316
0.5538768768310547 0.39419469237327576 0.4051956236362457
0.6729964017868042 0.41900861263275146 0.4211066961288452
0.18409401178359985 0.398275226354599 0.36270058155059814
0.2733529508113861 0.4520610570907593 0.3916923403739929
0.39984363317489624 0.49219366908073425 0.41552606225013733
0.5618922114372253 0.5338989496231079 0.4421325623989105
0.6822441816329956 0.5717834830284119 0.46926480531692505
0.24630750715732574 0.4613068997859955 0.39421936869621277
0.35934364795684814 0.544904887676239 0.42740383744239807
0.4861210882663727 0.603313684463501 0.4639926552772522
0.6088480949401855 0.6522743701934814 0.5091333985328674
0.703014612197876 0.687311053276062 0.5408831238746643
0.10285790264606476 0.14921098947525024 0.2667302191257477
0.23983606696128845 0.1875489056110382 0.30350616574287415
0.3800636827945709 0.2201821506023407 0.3321816325187683
0.5195462703704834 0.23791269958019257 0.3521397113800049
0.6040534377098083 0.24854783713817596 0.36208733916282654
0.14328855276107788 0.24325641989707947 0.3743515610694885
0.25332847237586975 0.27759501338005066 0.4070454239845276
0.39048898220062256 0.3043316900730133 0.42671406269073486
0.5453348159790039 0.3249129354953766 0.44024792313575745
0.6563283205032349 0.3385774493217468 0.44884732365608215
0.176317036151886 0.3354755938053131 0.4275941848754883
0.271938681602478 0.3746573030948639 0.462348997592926
0.39859631657600403 0.40259242057800293 0.48499131202697754
0.5616894960403442 0.43631044030189514 0.5002946257591248
0.6876239776611328 0.46319299936294556 0.5109768509864807
0.21014909446239471 0.41518479585647583 0.4476756751537323
0.3028908371925354 0.47519800066947937 0.48929938673973083
0.41960227489471436 0.5164279937744141 0.5217518210411072
0.572424054145813 0.5682708621025085 0.5528732538223267
0.699820339679718 0.6103072166442871 0.5730625987052917
0.26995983719825745 0.4678189754486084 0.46712106466293335
0.38437479734420776 0.5587085485458374 0.5193924903869629
0.4992941915988922 0.6227965354919434 0.5617744326591492
0.6253709197044373 0.6873801350593567 0.6123485565185547
0.7262972593307495 0.7319883108139038 0.6482447981834412
