app/src/main/assets/luts/Muted Meadow.cube
# Created by: Polarr Inc. All rights reserved.
# Copyright Notice
# © 2025 Polarr Inc. All rights reserved. This content is created by Polarr Inc and is protected under applicable copyright laws and international treaties. It may not be sold for monetary gain or used for any commercial purposes without the explicit, written consent of Polarr Inc. Unauthorized use, reproduction, or distribution of this content is strictly prohibited. For inquiries or permission requests, please contact Polarr Inc. directly.
TITLE "1000045977-1000046228"
DOMAIN_MIN 0 0 0
DOMAIN_MAX 1 1 1
LUT_3D_SIZE 25
0.03424062952399254 0.01603313535451889 0.008080592378973961
0.0712885782122612 0.017512256279587746 0.008946540765464306
0.10347887128591537 0.018797438591718674 0.009698946960270405
0.12927204370498657 0.020590150728821754 0.010562422685325146
0.1531219780445099 0.022891296073794365 0.011580641381442547
0.17608121037483215 0.02510650083422661 0.012560833245515823
0.19871211051940918 0.02704278752207756 0.013612139038741589
0.21991582214832306 0.028341948986053467 0.014774478040635586
0.24069443345069885 0.029615066945552826 0.01591351442039013
0.2610478699207306 0.03086213208734989 0.01702924259006977
0.27833878993988037 0.03218982368707657 0.018412524834275246
0.2969539165496826 0.0345391109585762 0.021394895389676094
0.31530576944351196 0.03685517981648445 0.024335091933608055
0.33281970024108887 0.03906549513339996 0.027141038328409195
0.3503018617630005 0.04127180576324463 0.029941899701952934
0.3678863048553467 0.04353756830096245 0.032750144600868225
0.386709064245224 0.04663792625069618 0.03562562167644501
0.4047868549823761 0.04961558058857918 0.03838729485869408
0.42211970686912537 0.052470527589321136 0.04103516414761543
0.43775659799575806 0.05504613369703293 0.04342395067214966
0.45454928278923035 0.05781211331486702 0.04598930478096008
0.47173410654067993 0.061098672449588776 0.048844218254089355
0.4795607626438141 0.06576885282993317 0.05174270272254944
0.48857107758522034 0.07114530354738235 0.05507952347397804
0.4987650215625763 0.07722802460193634 0.058854684233665466
0.03612373024225235 0.03741348162293434 0.007883137091994286
0.07288684695959091 0.03953567519783974 0.009113135747611523
0.10482965409755707 0.04137961193919182 0.010181858204305172
0.13066820800304413 0.042991649359464645 0.011476176790893078
0.15476566553115845 0.04459572210907936 0.013042395003139973
0.17796316742897034 0.04613988474011421 0.014550120569765568
0.20122550427913666 0.04764692857861519 0.01614624261856079
0.2238469272851944 0.04902759939432144 0.01787075400352478
0.2460148185491562 0.050380587577819824 0.019560690969228745
0.26772910356521606 0.051705893129110336 0.021216047927737236
0.2858930230140686 0.05304153636097908 0.022920502349734306
0.3044772744178772 0.05519874393939972 0.025777962058782578
0.3227987289428711 0.057325441390275955 0.028595013543963432
0.3402836322784424 0.05935503542423248 0.031283438205718994
0.35773682594299316 0.06138094887137413 0.03396699205040932
0.37530404329299927 0.06347062438726425 0.03666574880480766
0.3942815363407135 0.06646021455526352 0.03954742103815079
0.41250792145729065 0.06933148950338364 0.0423150435090065
0.4299832284450531 0.07208443433046341 0.0449686162173748
0.4457486569881439 0.07456802576780319 0.0473625510931015
0.46267935633659363 0.07723517715930939 0.049933429807424545
0.48003995418548584 0.08039883524179459 0.05277685821056366
0.4881868362426758 0.08486149460077286 0.05555083602666855
0.49756574630737305 0.08999904990196228 0.05874432250857353
0.5081767439842224 0.09581148624420166 0.06235731765627861
0.03788348287343979 0.057393401861190796 0.00769861601293087
0.07438042759895325 0.060116544365882874 0.00926881842315197
0.10609196126461029 0.06248263642191887 0.010633138939738274
0.13197293877601624 0.0639258325099945 0.012330078519880772
0.15630167722702026 0.06487849354743958 0.014408402144908905
0.17972184717655182 0.06579557061195374 0.01640910655260086
0.2035742551088333 0.06690148264169693 0.018514359369874
0.22752052545547485 0.06835832446813583 0.020764220505952835
0.2509866952896118 0.0697859525680542 0.022968973964452744
0.27397269010543823 0.07118437439203262 0.025128614157438278
0.29295244812965393 0.0725274533033371 0.02713320590555668
0.3115078806877136 0.07450515031814575 0.029873935505747795
0.32980090379714966 0.07645488530397415 0.03257590904831886
0.34725865721702576 0.07831559330224991 0.03515450656414032
0.3646847605705261 0.08017293363809586 0.037728432565927505
0.38223591446876526 0.08209805190563202 0.04032487794756889
0.4013579785823822 0.08498413115739822 0.04321233928203583
0.419723242521286 0.08775598555803299 0.045985523611307144
0.4373316764831543 0.09041361510753632 0.048644427210092545
0.45321720838546753 0.0928112119436264 0.05104317143559456
0.47027692198753357 0.09538602083921432 0.05361921340227127
0.48780176043510437 0.09843482077121735 0.056451912969350815
0.4962478578090668 0.10270356386899948 0.05910953879356384
0.5059712529182434 0.10761786252260208 0.06216907501220703
0.516972005367279 0.11317771673202515 0.06563052535057068
0.039519887417554855 0.07597281038761139 0.00752702821046114
0.07576931267976761 0.07925478368997574 0.009413587860763073
0.10726578533649445 0.08210642635822296 0.011052786372601986
0.1331862062215805 0.08339262008666992 0.013124126009643078
0.15773004293441772 0.08373952656984329 0.015678657218813896
0.1813572496175766 0.08407346904277802 0.01813778653740883
0.20575837790966034 0.08480637520551682 0.020716480910778046
0.23093661665916443 0.08633404225111008 0.02345486730337143
0.25561007857322693 0.08783107995986938 0.02613835223019123
0.2797786295413971 0.08929748833179474 0.028766926378011703
0.29951703548431396 0.09064748138189316 0.03105061501264572
0.31804564595222473 0.09245826303958893 0.033682797104120255
0.3363122344017029 0.09424343705177307 0.036277756094932556
0.353744775056839 0.09594709426164627 0.03875423222780228
0.37114569544792175 0.09764767438173294 0.04122621566057205
0.38868191838264465 0.09941977262496948 0.04372751712799072
0.4079384207725525 0.10220959782600403 0.046620361506938934
0.4264327883720398 0.10488900542259216 0.049398716539144516
0.44416505098342896 0.10745799541473389 0.05206257849931717
0.46016228199005127 0.10977563261985779 0.05446579307317734
0.4773419201374054 0.11226456612348557 0.057046640664339066
0.49501949548721313 0.11520656198263168 0.05986936017870903
0.5037438273429871 0.11929497122764587 0.06241878867149353
0.5137876272201538 0.12400166690349579 0.06535376608371735
0.5251507759094238 0.12932665646076202 0.06867429614067078
0.041260939091444016 0.09574035555124283 0.007344468031078577
0.0772470161318779 0.0996168926358223 0.009567616507411003
0.10851467400789261 0.10298514366149902 0.011499268934130669
0.13447704911231995 0.10410428792238235 0.013968952000141144
0.15924973785877228 0.10380670428276062 0.017030145972967148
0.183097243309021 0.1035202294588089 0.019977014511823654
0.2080821841955185 0.10385626554489136 0.023059427738189697
0.234571173787117 0.1054592952132225 0.026317577809095383
0.260529100894928 0.10703018307685852 0.029510408639907837
0.28595587611198425 0.10856892913579941 0.032637905329465866
0.30650144815444946 0.1099262684583664 0.03521854057908058
0.3250015079975128 0.11155945807695389 0.0377352312207222
0.343239963054657 0.11316954344511032 0.04021633788943291
0.36064568161964417 0.1147061213850975 0.04258415475487709
0.3780198097229004 0.11623990535736084 0.04494767636060715
0.39554011821746826 0.117849200963974 0.04734775051474571
0.41493967175483704 0.12053661048412323 0.05024632439017296
0.4335714280605316 0.12311766296625137 0.05303017795085907
0.451435387134552 0.12559235095977783 0.055699314922094345
0.46755146980285645 0.12782490253448486 0.05810729041695595
0.4848587214946747 0.13022246956825256 0.06069324538111687
0.5026987791061401 0.1330508440732956 0.06350534409284592
0.5117192268371582 0.1369473785161972 0.06593966484069824
0.5221037864685059 0.1414332091808319 0.06874211877584457
0.5338525176048279 0.14650829136371613 0.07191271334886551
0.04782513901591301 0.11245027929544449 0.009383237920701504
0.08132661134004593 0.11694465577602386 0.011556855402886868
0.11043544113636017 0.12084973603487015 0.013445472344756126
0.1355825960636139 0.1226523146033287 0.015939265489578247
0.16037288308143616 0.12320028990507126 0.019072173163294792
0.18423733115196228 0.12372780591249466 0.022088078781962395
0.20937009155750275 0.12474124878644943 0.025482462719082832
0.2362706959247589 0.12671871483325958 0.0295410118997097
0.26263198256492615 0.1286565214395523 0.033518191426992416
0.2884538471698761 0.1305546909570694 0.03741399198770523
0.30955770611763 0.13220298290252686 0.04056236892938614
0.3294222354888916 0.1341000348329544 0.043398965150117874
0.34900590777397156 0.13597024977207184 0.04619544744491577
0.3676953613758087 0.13775508105754852 0.04886424168944359
0.38635092973709106 0.13953667879104614 0.0515281967818737
0.40509143471717834 0.14138832688331604 0.05420020967721939
0.4248005449771881 0.1442350447177887 0.05695117637515068
0.44372960925102234 0.14696909487247467 0.05959326773881912
0.4618786573410034 0.14959047734737396 0.062126483768224716
0.4782518744468689 0.15195536613464355 0.06441183388233185
0.4958353340625763 0.15449506044387817 0.06686610728502274
0.513940155506134 0.15742135047912598 0.06953809410333633
0.5229567885398865 0.16103173792362213 0.071871317923069
0.5333370566368103 0.16518813371658325 0.07455740123987198
0.5450809001922607 0.16989050805568695 0.07759634405374527
0.055107153952121735 0.12705370783805847 0.011830494739115238
0.08575083315372467 0.13212300837039948 0.013859456405043602
0.11237657815217972 0.1365276277065277 0.015622383914887905
0.13655313849449158 0.13917770981788635 0.01804238185286522
0.16130544245243073 0.1408865749835968 0.021129759028553963
0.18513333797454834 0.142531618475914 0.02410183474421501
0.21029037237167358 0.14444443583488464 0.027734318748116493
0.23733936250209808 0.14684341847896576 0.032601919025182724
0.2638460695743561 0.14919431507587433 0.037371933460235596
0.2898103892803192 0.15149709582328796 0.04204434156417847
0.3113645017147064 0.15348605811595917 0.045785002410411835
0.3328428864479065 0.15573933720588684 0.04902787506580353
0.35401755571365356 0.15796074271202087 0.052224885672330856
0.374225378036499 0.16008073091506958 0.055275920778512955
0.3943966031074524 0.16219687461853027 0.058321427553892136
0.414577841758728 0.16437561810016632 0.06133957952260971
0.43461471796035767 0.1674361675977707 0.06391528993844986
0.4538586139678955 0.17037560045719147 0.0663890615105629
0.4723094701766968 0.17319388687610626 0.06876088678836823
0.488955020904541 0.1757364273071289 0.07090064883232117
0.5068308711051941 0.17846690118312836 0.07319856435060501
0.5252057313919067 0.18153761327266693 0.0757082998752594
0.534142017364502 0.18486030399799347 0.07795204222202301
0.5444297790527344 0.18868549168109894 0.08053509891033173
0.5560688972473145 0.19301316142082214 0.08345748484134674
0.062320638447999954 0.141519695520401 0.014254720881581306
0.0901334211230278 0.14715851843357086 0.01614038646221161
0.11429943889379501 0.1520579755306244 0.017778808251023293
0.13751454651355743 0.1555476039648056 0.020125707611441612
0.16222922503948212 0.15840642154216766 0.023167982697486877
0.18602091073989868 0.1611584722995758 0.026096640154719353
0.2112019807100296 0.1639622002840042 0.029964981600642204
0.2383979707956314 0.16677874326705933 0.03563402220606804
0.2650487422943115 0.16953881084918976 0.04118940979242325
0.291154146194458 0.1722424179315567 0.046631116420030594
0.31315430998802185 0.17456883192062378 0.05095849186182022
0.3362313508987427 0.17717498540878296 0.05460381135344505
0.35898205637931824 0.17974428832530975 0.05819758027791977
0.3806939721107483 0.18219627439975739 0.061627261340618134
0.4023665189743042 0.18464381992816925 0.06505072116851807
0.4239749610424042 0.18714658915996552 0.06841176748275757
0.44433656334877014 0.19041897356510162 0.0708138644695282
0.46389228105545044 0.1935618370771408 0.07312089949846268
0.48264214396476746 0.19657517969608307 0.07533285766839981
0.4995574355125427 0.19929368793964386 0.0773283913731575
0.5177229642868042 0.2022131234407425 0.07947142422199249
0.5363653302192688 0.2054269164800644 0.08182043582201004
0.5452219843864441 0.2084646224975586 0.08397553116083145
0.555418074131012 0.21196171641349792 0.0864565446972847
0.5669535398483276 0.21591819822788239 0.08926346898078918
0.0691399872303009 0.15519528090953827 0.01654648967087269
0.0942765474319458 0.16137249767780304 0.01829669065773487
0.11611724644899368 0.16673976182937622 0.019817408174276352
0.13842341303825378 0.17102305591106415 0.022095201537013054
0.16310253739356995 0.17496898770332336 0.025094838812947273
0.18685998022556305 0.17876757681369781 0.027982451021671295
0.21206378936767578 0.18241353332996368 0.032073765993118286
0.2393987476825714 0.18562482297420502 0.038500454276800156
0.2661856710910797 0.18877172470092773 0.04479829967021942
0.2924244999885559 0.19185422360897064 0.050967276096343994
0.31484630703926086 0.194499671459198 0.05584930256009102
0.3394346535205841 0.19743941724300385 0.05987508222460747
0.3636752963066101 0.20033760368824005 0.06384393572807312
0.3868091106414795 0.2031034380197525 0.06763157248497009
0.4099009931087494 0.20586428046226501 0.0714123398065567
0.4328586459159851 0.2086733728647232 0.07509753108024597
0.45352718234062195 0.21214599907398224 0.07733551412820816
0.4733777344226837 0.21548119187355042 0.07948491722345352
0.49241024255752563 0.21867893636226654 0.08154574781656265
0.5095805525779724 0.22156380116939545 0.08340493589639664
0.528019905090332 0.22466188669204712 0.08540154248476028
0.5469151735305786 0.22801093757152557 0.08759861439466476
0.5556965470314026 0.23077921569347382 0.08966990560293198
0.565805971622467 0.2339661568403244 0.09205444157123566
0.5772433876991272 0.23757173120975494 0.09475221484899521
0.07556519657373428 0.16808044910430908 0.01870580203831196
0.09818020462989807 0.174764946103096 0.02032836526632309
0.11782998591661453 0.1805729866027832 0.02173818089067936
0.13927976787090302 0.185604065656662 0.023950865492224693
0.16392536461353302 0.1905743032693863 0.0269103292375803
0.18765054643154144 0.19535891711711884 0.02975926734507084
0.21287579834461212 0.19979843497276306 0.03406066820025444
0.2403416782617569 0.20338164269924164 0.041201215237379074
0.2672569155693054 0.20689301192760468 0.04819860681891441
0.29362139105796814 0.21033252775669098 0.05505281686782837
0.31644052267074585 0.21327856183052063 0.060457438230514526
0.3424528241157532 0.2165326327085495 0.06484168767929077
0.3680972754955292 0.21974067389965057 0.06916394829750061
0.392570823431015 0.22280223667621613 0.07328885048627853
0.4169999957084656 0.22585825622081757 0.07740627229213715
0.44122886657714844 0.22895598411560059 0.08139688521623611
0.46218663454055786 0.23261727392673492 0.08348022401332855
0.48231494426727295 0.2361336648464203 0.08548110723495483
0.5016137957572937 0.23950515687465668 0.08739954233169556
0.5190243124961853 0.24254675209522247 0.08913026750087738
0.5377217531204224 0.24581317603588104 0.09098891168832779
0.5568552613258362 0.24928966164588928 0.09304283559322357
0.5655657649040222 0.2518041133880615 0.09503516554832458
0.5755935311317444 0.254698783159256 0.0973287969827652
0.5869385600090027 0.2579737603664398 0.09992372989654541
0.08127283304929733 0.18040254712104797 0.021332448348402977
0.10210232436656952 0.18777473270893097 0.02298261597752571
0.12020070105791092 0.19418029487133026 0.024416418746113777
0.14092114567756653 0.20019429922103882 0.02661682851612568
0.16532571613788605 0.2064986526966095 0.029538379982113838
0.18881885707378387 0.2125675529241562 0.032350823283195496
0.21389427781105042 0.21802720427513123 0.03672761470079422
0.24138416349887848 0.22205427289009094 0.044170770794153214
0.2683229148387909 0.2260006070137024 0.05146470293402672
0.2947104275226593 0.22986619174480438 0.058609385043382645
0.31777533888816833 0.23315554857254028 0.06427935510873795
0.3448280692100525 0.2367154061794281 0.06901299953460693
0.3714981973171234 0.2402249276638031 0.07367970049381256
0.3969506025314331 0.24357420206069946 0.07813332229852676
0.42235684394836426 0.24691741168498993 0.0825788676738739
0.44752299785614014 0.250299870967865 0.08688247948884964
0.46882399916648865 0.25420597195625305 0.0890536829829216
0.4892819821834564 0.25795748829841614 0.09113895148038864
0.5088968873023987 0.26155441999435425 0.09313829243183136
0.5265925526618958 0.26479941606521606 0.09494201093912125
0.5455962419509888 0.26828426122665405 0.09687904268503189
0.56502366065979 0.2719572186470032 0.09900642186403275
0.5737329721450806 0.27437281608581543 0.10098516941070557
0.5837593674659729 0.27715376019477844 0.10326316952705383
0.595102846622467 0.2803000211715698 0.10584041476249695
0.08520501106977463 0.19096359610557556 0.024817880243062973
0.1058792769908905 0.19937030971050262 0.026820551604032516
0.12384277582168579 0.2066747397184372 0.028560636565089226
0.14413510262966156 0.21411967277526855 0.03086037188768387
0.16787385940551758 0.22234654426574707 0.03375054523348808
0.19072605669498444 0.23026616871356964 0.03653278201818466
0.21529889106750488 0.23717424273490906 0.040698401629924774
0.24258694052696228 0.2417754977941513 0.047565851360559464
0.26932790875434875 0.24628449976444244 0.0542956218123436
0.29552170634269714 0.2507012188434601 0.06088767945766449
0.3185025751590729 0.254407674074173 0.06627002358436584
0.34574094414711 0.25824108719825745 0.07131758332252502
0.3725941479206085 0.2620202898979187 0.07629375904798508
0.3982212245464325 0.2656269371509552 0.08104272931814194
0.42380186915397644 0.2692270576953888 0.08578308671712875
0.4491596519947052 0.2728727161884308 0.09040094166994095
0.4709013104438782 0.2771301567554474 0.09316543489694595
0.4917824864387512 0.28121909499168396 0.09582050889730453
0.5118032097816467 0.2851395308971405 0.09836617112159729
0.5298649668693542 0.28867635130882263 0.10066275298595428
0.549261748790741 0.292474627494812 0.10312908887863159
0.5690864324569702 0.29647985100746155 0.10578162968158722
0.5779410600662231 0.2991270422935486 0.10788480937480927
0.588134765625 0.3021745979785919 0.11030605435371399
0.5996675491333008 0.3056224584579468 0.11304536461830139
0.088829904794693 0.2006993442773819 0.028030937537550926
0.10936107486486435 0.2100597321987152 0.030358564108610153
0.12720023095607758 0.21819280087947845 0.03238099813461304
0.1470979005098343 0.2269568145275116 0.034772295504808426
0.17022287845611572 0.23695597052574158 0.03763354569673538
0.19248422980308533 0.24658170342445374 0.04038793593645096
0.21659372746944427 0.25482502579689026 0.044358886778354645
0.2436957210302353 0.25995558500289917 0.050695620477199554
0.27025437355041504 0.26498326659202576 0.05690531060099602
0.29626956582069397 0.2699081003665924 0.06298793107271194
0.3191729485988617 0.2739989757537842 0.06810513138771057
0.3465825021266937 0.27808457612991333 0.07344207167625427
0.3736044466495514 0.2821124196052551 0.07870353758335114
0.39939257502555847 0.28595632314682007 0.08372477442026138
0.42513394355773926 0.2897932827472687 0.08873689919710159
0.4506683647632599 0.2936815619468689 0.09364445507526398
0.4728162884712219 0.2982628643512726 0.09695586562156677
0.4940876066684723 0.30266284942626953 0.10013621300458908
0.5144823789596558 0.30688151717185974 0.1031855046749115
0.5328816175460815 0.310687392950058 0.1059364378452301
0.5526408553123474 0.31477460265159607 0.10889070481061935
0.5728316903114319 0.31908613443374634 0.1120273768901825
0.5818202495574951 0.3219468295574188 0.11424526572227478
0.5921682119369507 0.3252401351928711 0.11679856479167938
0.6038755178451538 0.32896605134010315 0.1196872740983963
0.09247521311044693 0.2104899287223816 0.03126209229230881
0.1128624752163887 0.22080935537815094 0.03391650691628456
0.13057661056518555 0.22977572679519653 0.036222878843545914
0.15007738769054413 0.23986627161502838 0.038706254214048386
0.172585129737854 0.2516477108001709 0.04153841361403465
0.19425229728221893 0.2629891335964203 0.04426480457186699
0.21789585053920746 0.2725751996040344 0.0480399914085865
0.24481076002120972 0.27823805809020996 0.05384301394224167
0.27118605375289917 0.2837873697280884 0.05952969938516617
0.29702165722846985 0.2892231345176697 0.06510001420974731
0.31984710693359375 0.2937006652355194 0.06995057314634323
0.3474287688732147 0.29803988337516785 0.07557852566242218
0.3746204376220703 0.30231770873069763 0.08112689107656479
0.40057048201560974 0.30640020966529846 0.0864219218492508
0.4264735281467438 0.31047534942626953 0.09170735627412796
0.45218563079833984 0.3146076500415802 0.09690622985363007
0.47474202513694763 0.3195146322250366 0.10076764225959778
0.4964057207107544 0.32422739267349243 0.10447622835636139
0.5171766877174377 0.32874596118927 0.1080319881439209
0.5359153151512146 0.33282241225242615 0.11123983561992645
0.5560389757156372 0.3372001647949219 0.11468478292226791
0.5765979886054993 0.34181973338127136 0.11830831319093704
0.5857213735580444 0.3448951244354248 0.1206415444612503
0.5962243676185608 0.34843558073043823 0.12332764267921448
0.6081071496009827 0.35244113206863403 0.12636658549308777
0.09602558612823486 0.22002555429935455 0.03440909832715988
0.1162727028131485 0.23127904534339905 0.037381790578365326
0.13386504352092743 0.24105700850486755 0.039964709430933
0.1529792845249176 0.2524395287036896 0.04253776744008064
0.1748858541250229 0.2659568190574646 0.04534159228205681
0.19597432017326355 0.27896928787231445 0.048040710389614105
0.21916407346725464 0.28986313939094543 0.05162522941827774
0.24589674174785614 0.29604440927505493 0.05690844729542732
0.2720934748649597 0.3021017611026764 0.06208574026823044
0.2977541387081146 0.3080351650714874 0.06715709716081619
0.32050371170043945 0.3128892779350281 0.07174795120954514
0.3482530415058136 0.31747546792030334 0.07765933871269226
0.37560996413230896 0.321996808052063 0.0834871381521225
0.40171775221824646 0.32631170749664307 0.089048832654953
0.4277782142162323 0.33061879873275757 0.09460045397281647
0.45366334915161133 0.3349887430667877 0.10008306801319122
0.47661763429641724 0.34021294116973877 0.10448015481233597
0.49866345524787903 0.345230370759964 0.10870321840047836
0.5198007822036743 0.3500410318374634 0.11275225877761841
0.5388699173927307 0.3543809950351715 0.11640511453151703
0.5593485832214355 0.3590417504310608 0.12032796442508698
0.5802662968635559 0.3639613389968872 0.12442567199468613
0.5895208120346069 0.36724579334259033 0.126871258020401
0.6001749634742737 0.3710269629955292 0.12968668341636658
0.6122286319732666 0.3753048777580261 0.13287195563316345
0.09948103874921799 0.2293062061071396 0.037471964955329895
0.11959174275398254 0.24146880209445953 0.040754422545433044
0.1370655596256256 0.2520366609096527 0.04360648989677429
0.15580357611179352 0.26467663049697876 0.0462668277323246
0.17712508141994476 0.27988335490226746 0.04904308170080185
0.19765028357505798 0.29452216625213623 0.051715653389692307
0.22039838135242462 0.3066888153553009 0.05511460825800896
0.24695369601249695 0.31337466835975647 0.05989191308617592
0.2729766070842743 0.3199264705181122 0.06457344442605972
0.2984670400619507 0.32634422183036804 0.06915917247533798
0.3211427628993988 0.3315648138523102 0.07349727302789688
0.3490552306175232 0.336391419172287 0.07968451827764511
0.37657302618026733 0.3411497473716736 0.08578427135944366
0.40283432602882385 0.3456908166408539 0.09160550683736801
0.4290480315685272 0.3502236604690552 0.09741619229316711
0.45510154962539673 0.35482490062713623 0.10317495465278625
0.47844308614730835 0.3603578209877014 0.10809340327978134
0.5008608102798462 0.3656717538833618 0.1128171905875206
0.5223547220230103 0.37076669931411743 0.11734630912542343
