app/src/main/assets/luts/Sunlit Spill.cube
# Created by: Polarr Inc. All rights reserved.
# Copyright Notice
# © 2025 Polarr Inc. All rights reserved. This content is created by Polarr Inc and is protected under applicable copyright laws and international treaties. It may not be sold for monetary gain or used for any commercial purposes without the explicit, written consent of Polarr Inc. Unauthorized use, reproduction, or distribution of this content is strictly prohibited. For inquiries or permission requests, please contact Polarr Inc. directly.
TITLE "reference18-1000046228"
DOMAIN_MIN 0 0 0
DOMAIN_MAX 1 1 1
LUT_3D_SIZE 5
0.0172758549451828 0.012179291807115078 0.007747843395918608
0.23174867033958435 0.02585209719836712 0.0075037553906440735
0.5128812193870544 0.047243911772966385 0.020237736403942108
0.6979926824569702 0.07375911623239517 0.03985206037759781
0.7418290376663208 0.12941204011440277 0.09149394929409027
0.03468506410717964 0.154981791973114 0.02099166437983513
0.2663551867008209 0.20501698553562164 0.023750541731715202
0.5862112045288086 0.22457613050937653 0.041061993688344955
0.7755646109580994 0.24759596586227417 0.05818531662225723
0.8241739273071289 0.29682597517967224 0.12010068446397781
0.0697515606880188 0.2730998396873474 0.03565453737974167
0.2706613540649414 0.41413062810897827 0.0551108792424202
0.6229300498962402 0.47013935446739197 0.0816834568977356
0.835031270980835 0.5047988891601562 0.10495531558990479
0.8810722231864929 0.5369716286659241 0.17131899297237396
0.11742158234119415 0.32732439041137695 0.057601023465394974
0.30590251088142395 0.5440792441368103 0.08823229372501373
0.6278216242790222 0.6327047944068909 0.12490086257457733
0.8482227921485901 0.690416693687439 0.16842634975910187
0.8977017402648926 0.7132577300071716 0.2409764528274536
0.1893385499715805 0.35361772775650024 0.13254866003990173
0.40497949719429016 0.592337965965271 0.19277220964431763
0.6689879894256592 0.7033653259277344 0.250288724899292
0.8566915392875671 0.775831937789917 0.31555643677711487
0.9016388058662415 0.7898523807525635 0.3931465148925781
0.020162422209978104 0.029077479615807533 0.13472089171409607
0.23905618488788605 0.0421314500272274 0.13978759944438934
0.5633165240287781 0.07062278687953949 0.14053663611412048
0.7799312472343445 0.12125690281391144 0.1492740958929062
0.8390567898750305 0.19456270337104797 0.19926780462265015
0.04420415312051773 0.2011459767818451 0.16908222436904907
0.25516295433044434 0.22759494185447693 0.17444397509098053
0.6189530491828918 0.2413026988506317 0.15445420145988464
0.8444977402687073 0.2744407057762146 0.1627912074327469
0.9228388667106628 0.341056764125824 0.22471797466278076
0.09076236188411713 0.36315056681632996 0.1731615513563156
0.2735256254673004 0.46785488724708557 0.18388062715530396
0.6527859568595886 0.5050663352012634 0.1773802936077118
0.8905288577079773 0.5468757748603821 0.20060263574123383
0.9553558826446533 0.5893357396125793 0.28338807821273804
0.15078935027122498 0.4491996169090271 0.18534955382347107
0.3280165195465088 0.6289213299751282 0.20431625843048096
0.6548542380332947 0.6994479298591614 0.2212093472480774
0.8980479836463928 0.7518357038497925 0.26921963691711426
0.9689146280288696 0.786182701587677 0.3730258345603943
0.245248481631279 0.4785999655723572 0.26591983437538147
0.46320125460624695 0.7021796107292175 0.31621482968330383
0.7188058495521545 0.8116050958633423 0.3637647032737732
0.9086257815361023 0.8610116839408875 0.42951706051826477
0.9733404517173767 0.8851640820503235 0.5358468294143677
0.033306341618299484 0.0772423967719078 0.25180584192276
0.23798435926437378 0.09769683331251144 0.2878788113594055
0.587537407875061 0.11262346804141998 0.3141181170940399
0.8031967282295227 0.160150945186615 0.3469090163707733
0.8488917350769043 0.24176567792892456 0.37657931447029114
0.05506100878119469 0.22573980689048767 0.3827677369117737
0.23811495304107666 0.25523144006729126 0.4222716689109802
0.6084251403808594 0.2773233652114868 0.4272596538066864
0.8539930582046509 0.3099640905857086 0.43590661883354187
0.9289467334747314 0.37728264927864075 0.46203798055648804
0.10923779755830765 0.4317570626735687 0.4197208285331726
0.2673400342464447 0.5037955641746521 0.46344760060310364
0.6271424889564514 0.5397643446922302 0.4674401879310608
0.8938356637954712 0.58207768201828 0.4713285565376282
0.9641037583351135 0.6208662390708923 0.5074374079704285
0.17909549176692963 0.5482880473136902 0.4307720959186554
0.3412960469722748 0.6681092381477356 0.4726456105709076
0.6494900584220886 0.7361314296722412 0.48635923862457275
0.9020159840583801 0.7831644415855408 0.5068919062614441
0.9805848598480225 0.817529559135437 0.5584800839424133
0.28994235396385193 0.5774401426315308 0.4713882803916931
0.495294451713562 0.7469926476478577 0.5259075164794922
0.7466179728507996 0.8526171445846558 0.5655369758605957
0.9190862774848938 0.8969446420669556 0.6085464954376221
0.9864013195037842 0.9199913144111633 0.6648424863815308
0.06132732331752777 0.1489456295967102 0.33535879850387573
0.24438314139842987 0.1944269835948944 0.3919087052345276
0.5965123772621155 0.22123539447784424 0.44770583510398865
0.8211291432380676 0.23882417380809784 0.48227307200431824
0.8568160533905029 0.2877897620201111 0.4965061545372009
0.08899716287851334 0.2712911367416382 0.5150033235549927
0.2479235678911209 0.31080928444862366 0.5818414688110352
0.6021416783332825 0.34400540590286255 0.6126614809036255
0.863032341003418 0.3746092617511749 0.6289147138595581
0.9354352951049805 0.42389047145843506 0.6458626985549927
0.13891737163066864 0.45792561769485474 0.5900009870529175
0.27854418754577637 0.525192141532898 0.6790022253990173
0.6050661206245422 0.5729050040245056 0.719389796257019
0.8862629532814026 0.6335073709487915 0.7355182766914368
0.9711737632751465 0.6709509491920471 0.7493926882743835
0.20909276604652405 0.5742090940475464 0.6133411526679993
0.35643211007118225 0.6981444358825684 0.7110625505447388
0.643930971622467 0.7734056711196899 0.7631813883781433
0.8934804201126099 0.8389132618904114 0.7903258800506592
0.9876209497451782 0.8683682084083557 0.8066127896308899
0.3285270631313324 0.6051075458526611 0.6343578100204468
0.5226001143455505 0.7783164978027344 0.743537425994873
0.7717987895011902 0.8830481171607971 0.8087616562843323
0.93609619140625 0.9516143798828125 0.8697572350502014
0.9961988925933838 0.9689301252365112 0.886990487575531
0.12668657302856445 0.21085554361343384 0.37736207246780396
0.3062911331653595 0.27163562178611755 0.4564764201641083
0.6048592329025269 0.32726868987083435 0.49580979347229004
0.8245818018913269 0.35874080657958984 0.5225617289543152
0.861780047416687 0.38612478971481323 0.5302925109863281
0.18207599222660065 0.35097330808639526 0.5614266991615295
0.3253713548183441 0.415531188249588 0.6514785885810852
0.6127291917800903 0.4560201168060303 0.6804481148719788
0.8656964898109436 0.48979538679122925 0.6947498321533203
0.9431784749031067 0.5209015011787415 0.701443076133728
0.21228960156440735 0.4975164830684662 0.6428354978561401
0.35071343183517456 0.5864250659942627 0.7560393214225769
0.6217247247695923 0.6263321042060852 0.8052154779434204
0.8863275647163391 0.6841672658920288 0.8235325813293457
0.9811202883720398 0.7184799313545227 0.8297621011734009
0.2629166841506958 0.5865631699562073 0.6596705913543701
0.41217371821403503 0.7212382555007935 0.7885023951530457
0.6593083739280701 0.7911679148674011 0.8657701015472412
0.8932091593742371 0.862183690071106 0.9046909213066101
0.9970582127571106 0.8972350358963013 0.9152686595916748
0.36349546909332275 0.6096977591514587 0.6649209260940552
0.5606586337089539 0.7875803709030151 0.8031296730041504
0.7861432433128357 0.894940972328186 0.8910156488418579
0.9425966143608093 0.9743556976318359 0.9506922364234924
1 0.9911441802978516 0.9652481079101562
