app/src/main/assets/luts/Sunlit Spill.cube
# Created by: Polarr Inc. All rights reserved.
# Copyright Notice
# © 2025 Polarr Inc. All rights reserved. This content is created by Polarr Inc and is protected under applicable copyright laws and international treaties. It may not be sold for monetary gain or used for any commercial purposes without the explicit, written consent of Polarr Inc. Unauthorized use, reproduction, or distribution of this content is strictly prohibited. For inquiries or permission requests, please contact Polarr Inc. directly.
TITLE "reference18-1000046228"
DOMAIN_MIN 0 0 0
DOMAIN_MAX 1 1 1
LUT_3D_SIZE 25
0.0172758549451828 0.012179291807115078 0.007747843395918608
0.04782603681087494 0.01500951312482357 0.008444072678685188
0.08872365951538086 0.017793837934732437 0.007966225035488605
0.1277656853199005 0.02044355869293213 0.00751486886292696
0.16289842128753662 0.022259291261434555 0.007439338136464357
0.1962769329547882 0.023984363302588463 0.00736757880076766
0.23174867033958435 0.02585209719836712 0.0075037553906440735
0.27824845910072327 0.02841160260140896 0.008366759866476059
0.3233107924461365 0.030891986563801765 0.009203086607158184
0.3669358491897583 0.033293258398771286 0.010012737475335598
0.4164198338985443 0.03787477687001228 0.013290897011756897
0.4655132293701172 0.04264313727617264 0.0168264452368021
0.5128812193870544 0.047243911772966385 0.020237736403942108
0.5596100091934204 0.051782604306936264 0.02360299602150917
0.5915825963020325 0.05613051727414131 0.026774857193231583
0.6223471760749817 0.060358647257089615 0.029858006164431572
0.6528721451759338 0.06455384194850922 0.03291713818907738
0.6818562746047974 0.06853727251291275 0.03582185506820679
0.6979926824569702 0.07375911623239517 0.03985206037759781
0.7078657746315002 0.07988286018371582 0.04467045143246651
0.7174592614173889 0.08583316951990128 0.04935237765312195
0.7267730832099915 0.09161003679037094 0.053897835314273834
0.7350925803184509 0.09677021205425262 0.057958051562309265
0.7396643161773682 0.11073395609855652 0.07201510667800903
0.7418290376663208 0.12941204011440277 0.09149394929409027
0.018754245713353157 0.038207340985536575 0.010161262936890125
0.048736654222011566 0.04384811222553253 0.010674973018467426
0.08954723179340363 0.04806854575872421 0.009915558621287346
0.12855075299739838 0.05207046866416931 0.009197695180773735
0.16671210527420044 0.053815118968486786 0.009039212949573994
0.20296801626682281 0.05547265708446503 0.00888864416629076
0.24141556024551392 0.05722614377737045 0.009061751887202263
0.29155194759368896 0.05949900299310684 0.010362028144299984
0.3401385247707367 0.06170159950852394 0.011622108519077301
0.38717538118362427 0.06383394449949265 0.012841998599469662
0.43510696291923523 0.06751086562871933 0.01602533832192421
0.4820093512535095 0.07130979001522064 0.019399577751755714
0.5272632837295532 0.07497519999742508 0.022655226290225983
0.5719066262245178 0.07859115302562714 0.02586694248020649
0.6038039326667786 0.08275845646858215 0.029077481478452682
0.6345444321632385 0.08682893961668015 0.03220299258828163
0.665045440196991 0.09086771309375763 0.03530415892601013
0.6940068602561951 0.09470262378454208 0.03824878856539726
0.7105264067649841 0.09966371208429337 0.04225718975067139
0.7210196256637573 0.10545431822538376 0.047019317746162415
0.7312155961990356 0.11108091473579407 0.05164657533168793
0.7411144375801086 0.11654350906610489 0.056138962507247925
0.7499565482139587 0.12142296135425568 0.06015177071094513
0.7548765540122986 0.13592441380023956 0.07508879154920578
0.7572723627090454 0.1556074172258377 0.09596668928861618
0.020052140578627586 0.061057645827531815 0.012280031107366085
0.049536094069480896 0.06916583329439163 0.01263350434601307
0.0902702584862709 0.07464703172445297 0.011626900173723698
0.12923996150493622 0.07983607053756714 0.010675066150724888
0.1700601875782013 0.08151831477880478 0.010443760082125664
0.2088421881198883 0.0831165686249733 0.010224002413451672
0.24990221858024597 0.08476975560188293 0.010429534129798412
0.30323123931884766 0.08679096400737762 0.012113695032894611
0.354911744594574 0.08874969184398651 0.01374579407274723
0.4049438536167145 0.09064594656229019 0.015325836837291718
0.4515126049518585 0.09352870285511017 0.01842593401670456
0.4964914619922638 0.09647654742002487 0.021658556535840034
0.5398895144462585 0.09932079911231995 0.024777565151453018
0.5827019214630127 0.10212666541337967 0.02785448729991913
0.6145331263542175 0.10613540560007095 0.031098980456590652
0.6452524662017822 0.11006748676300049 0.034261684864759445
0.6757325530052185 0.11396894603967667 0.03739975020289421
0.7046740651130676 0.11767347157001495 0.040379416197538376
0.7215298414230347 0.12240564078092575 0.044368676841259
0.7325674891471863 0.1279037743806839 0.04908141493797302
0.743292510509491 0.13324618339538574 0.05366067960858345
0.7537049055099487 0.13843287527561188 0.058106470853090286
0.763005793094635 0.14306586980819702 0.062077656388282776
0.7682315111160278 0.158039391040802 0.07778720557689667
0.7708302140235901 0.1786046177148819 0.09989335387945175
0.021169548854231834 0.0807303786277771 0.014104161411523819
0.050224363803863525 0.09096285700798035 0.01431968156248331
0.0908927395939827 0.09752950817346573 0.01310026179999113
0.12983332574367523 0.10374058037996292 0.011946993879973888
0.17294268310070038 0.10536910593509674 0.011652990244328976
0.21389949321746826 0.10691630840301514 0.011373666115105152
0.2572087347507477 0.10848314315080643 0.011607111431658268
0.3132864236831665 0.11028769612312317 0.013621775433421135
0.36763060092926025 0.11203646659851074 0.015574160031974316
0.42024144530296326 0.11372946202754974 0.017464272677898407
0.46563687920570374 0.11592849344015121 0.02049270272254944
0.5089597105979919 0.11814361810684204 0.023603400215506554
0.5507599115371704 0.12028088420629501 0.026604771614074707
0.5919960737228394 0.12238931655883789 0.02956564351916313
0.6237702965736389 0.12626154720783234 0.032839369028806686
0.6544714570045471 0.13007448613643646 0.03603409230709076
0.6849334836006165 0.13385771214962006 0.03920392692089081
0.7138578295707703 0.1374499797821045 0.04221376031637192
0.7310031652450562 0.14198507368564606 0.04618653655052185
0.7425094842910767 0.14723140001296997 0.050856754183769226
0.7536899447441101 0.15232914686203003 0.05539470165967941
0.7645445466041565 0.15727829933166504 0.05980037525296211
0.7742403745651245 0.161699116230011 0.063735730946064
0.7797293066978455 0.17707905173301697 0.08011038601398468
0.7825027704238892 0.19840383529663086 0.10327398031949997
0.022546609863638878 0.10102301090955734 0.01598583534359932
0.0511336475610733 0.11346077173948288 0.016094116494059563
0.09159472584724426 0.12111196666955948 0.014704970642924309
0.13037212193012238 0.12834532558918 0.013391140848398209
0.17571808397769928 0.12999679148197174 0.013053221628069878
0.21879984438419342 0.13156579434871674 0.01273217611014843
0.26430055499076843 0.13311347365379333 0.0130076352506876
0.3230361342430115 0.13475660979747772 0.015355612151324749
0.37995603680610657 0.13634894788265228 0.017631005495786667
0.43506044149398804 0.1378905028104782 0.019833825528621674
0.4794909358024597 0.13947008550167084 0.02279362455010414
0.521401047706604 0.1410169005393982 0.0257854163646698
0.5618382096290588 0.1425093710422516 0.02867205999791622
0.601729691028595 0.1439816802740097 0.031519751995801926
0.633474588394165 0.14773216843605042 0.03480740264058113
0.6641793847084045 0.15143917500972748 0.03801879659295082
0.6946450471878052 0.15511730313301086 0.04120517522096634
0.723572850227356 0.1586097776889801 0.044230714440345764
0.7409875392913818 0.1629469245672226 0.048185694962739944
0.7529194355010986 0.16793332993984222 0.0528191477060318
0.7645134329795837 0.17277851700782776 0.057321369647979736
0.7757694721221924 0.1774824857711792 0.061692364513874054
0.7858238816261292 0.18168427050113678 0.06559673696756363
0.7915524244308472 0.19740800559520721 0.08263831585645676
0.7944855093955994 0.2193988412618637 0.10685929656028748
0.028690936043858528 0.12833623588085175 0.018519720062613487
0.05616820231080055 0.1440109759569168 0.01915399171411991
0.093684621155262 0.1524507850408554 0.018488362431526184
0.1296963095664978 0.16044919192790985 0.017861146479845047
0.1756700724363327 0.1636296510696411 0.01786097139120102
0.2193482667207718 0.16665129363536835 0.01786080375313759
0.2653405964374542 0.16951008141040802 0.01844555325806141
0.32426226139068604 0.17212237417697906 0.02109679952263832
0.3813624978065491 0.17465390264987946 0.02366608940064907
0.43664148449897766 0.17710469663143158 0.026153428480029106
0.48446357250213623 0.17949117720127106 0.029122062027454376
0.5301218628883362 0.1818116009235382 0.03208493813872337
0.5741754770278931 0.18405048549175262 0.034943681210279465
0.617634654045105 0.18625913560390472 0.03776384890079498
0.6499016284942627 0.19021013379096985 0.04075999557971954
0.6810401082038879 0.19409923255443573 0.04368113353848457
0.7119359970092773 0.19795802235603333 0.0465795136988163
0.7412723898887634 0.20162203907966614 0.04933159425854683
0.7584899663925171 0.20579515397548676 0.053247373551130295
0.7698874473571777 0.2104281634092331 0.057967040687799454
0.7809620499610901 0.2149299681186676 0.0625530406832695
0.7917138934135437 0.2193005532026291 0.06700536608695984
0.8013179302215576 0.22320456802845 0.07098239660263062
0.8067592978477478 0.23794889450073242 0.08855577558279037
0.8095133900642395 0.2585914433002472 0.11356191337108612
0.03468506410717964 0.154981791973114 0.02099166437983513
0.061079688370227814 0.17381440103054047 0.022139066830277443
0.09572342783212662 0.18302352726459503 0.022179270163178444
0.1290370225906372 0.19176830351352692 0.0222218856215477
0.17562322318553925 0.19644035398960114 0.022551195695996284
0.2198832929134369 0.20087912678718567 0.02286406233906746
0.2663551867008209 0.20501698553562164 0.023750541731715202
0.3254584074020386 0.20857472717761993 0.026697644963860512
0.38273459672927856 0.21202249825000763 0.029553646221756935
0.43818390369415283 0.21536029875278473 0.03231855109333992
0.4893146753311157 0.2185339778661728 0.03529580309987068
0.5386295318603516 0.22160910069942474 0.03823046758770943
0.5862112045288086 0.22457613050937653 0.041061993688344955
0.6331507563591003 0.22750313580036163 0.04385530948638916
0.6659271121025085 0.2316497415304184 0.046567078679800034
0.6974886059761047 0.23571647703647614 0.049205053597688675
0.7288042902946472 0.23975151777267456 0.051822479814291
0.7585392594337463 0.24358287453651428 0.054307784885168076
0.7755646109580994 0.24759596586227417 0.05818531662225723
0.7864406108856201 0.25188422203063965 0.06298909336328506
0.7970085740089417 0.25605103373527527 0.06765682250261307
0.8072685599327087 0.26009640097618103 0.07218849658966064
0.8164331912994385 0.2637099027633667 0.07623639702796936
0.8215944170951843 0.2774987518787384 0.09432858228683472
0.8241739273071289 0.29682597517967224 0.12010068446397781
0.04062613472342491 0.18139149248600006 0.023441728204488754
0.06594769656658173 0.20335400104522705 0.025097720324993134
0.09774418920278549 0.21332566440105438 0.025837508961558342
0.1283835768699646 0.22281017899513245 0.02654402330517769
0.17557679116725922 0.22896064817905426 0.02719990350306034
0.22041358053684235 0.23480400443077087 0.027823034673929214
0.2673608362674713 0.24020957946777344 0.029008572921156883
0.3266439735889435 0.24470442533493042 0.03224891424179077
0.3840945065021515 0.24906033277511597 0.03538908809423447
0.43971264362335205 0.2532773017883301 0.038429103791713715
0.49412280321121216 0.2572311758995056 0.04141489416360855
0.5470618605613708 0.26105430722236633 0.04432160034775734
0.5981403589248657 0.26474305987358093 0.04712614789605141
0.648529589176178 0.2683820426464081 0.0498928539454937
0.681810736656189 0.2727225422859192 0.05232275649905205
0.71379154920578 0.27696532011032104 0.054680075496435165
0.7455232739448547 0.28117504715919495 0.057019032537937164
0.7756533026695251 0.2851722836494446 0.05923992767930031
0.7924880385398865 0.28902676701545715 0.06307955086231232
0.8028472661972046 0.2929733395576477 0.06796669960021973
0.8129130601882935 0.296808123588562 0.07271543145179749
0.8226854801177979 0.3005311191082001 0.0773257464170456
0.8314146995544434 0.3038567006587982 0.0814438983798027
0.8362982869148254 0.3166985511779785 0.10005028545856476
0.8387046456336975 0.3347220718860626 0.1265815645456314
0.0463242307305336 0.20672111213207245 0.02579159289598465
0.07061662524938583 0.23168553411960602 0.027935374528169632
0.09968230128288269 0.2423885315656662 0.029346134513616562
0.12775684893131256 0.2525825500488281 0.03068939968943596
0.175532266497612 0.2601509392261505 0.03165849298238754
0.22092218697071075 0.2673414647579193 0.0325792022049427
0.2683253288269043 0.27396291494369507 0.0340515673160553
0.3277810513973236 0.27935653924942017 0.037573155015707016
0.38539883494377136 0.2845834195613861 0.04098587855696678
0.4411788582801819 0.2896435856819153 0.04428975284099579
0.49873432517051697 0.29434579610824585 0.04728373512625694
0.5551493763923645 0.29888632893562317 0.0501636266708374
0.6095816493034363 0.30326730012893677 0.05294229835271835
0.6632794141769409 0.3075891435146332 0.055683478713035583
0.6970447897911072 0.3121156096458435 0.05784304812550545
0.7294277548789978 0.31652724742889404 0.0599311888217926
0.7615585327148438 0.32090452313423157 0.06200306490063667
0.7920674085617065 0.3250608444213867 0.06397036463022232
0.8087193965911865 0.3287631869316101 0.06777363270521164
0.8185829520225525 0.3323820233345032 0.07274073362350464
0.8281671404838562 0.33589836955070496 0.07756715267896652
0.8374719619750977 0.33931219577789307 0.08225289732217789
0.8457834720611572 0.3423616290092468 0.08643842488527298
0.8504007458686829 0.35429519414901733 0.10553799569606781
0.8526411652565002 0.3710683584213257 0.13279742002487183
0.05186087265610695 0.23036468029022217 0.028080042451620102
0.0752304345369339 0.25819072127342224 0.030689068138599396
0.10180937498807907 0.26976364850997925 0.03272523358464241
0.12754644453525543 0.2808011472225189 0.03466252237558365
0.17572349309921265 0.29002171754837036 0.03595995903015137
0.22149497270584106 0.2987819314002991 0.03719261661171913
0.2692207098007202 0.30679556727409363 0.038960009813308716
0.32883220911026 0.31312495470046997 0.04275078698992729
0.38660097122192383 0.3192586898803711 0.04642438143491745
0.442527174949646 0.325196772813797 0.049980804324150085
0.5028905868530273 0.3306310474872589 0.05302240699529648
0.5624085664749146 0.335866242647171 0.05592086911201477
0.6198347806930542 0.3409174382686615 0.05871745944023132
0.676486074924469 0.34590044617652893 0.061476316303014755
0.7107274532318115 0.3506268560886383 0.06344491243362427
0.7435131669044495 0.35522186756134033 0.06534203141927719
0.7760434746742249 0.35978105664253235 0.06722436845302582
0.806931734085083 0.36411014199256897 0.06901169568300247
0.8234542608261108 0.3676983416080475 0.07279325276613235
0.8329064846038818 0.37104228138923645 0.07782358676195145
0.8420909643173218 0.3742915391921997 0.08271145075559616
0.8510077595710754 0.37744608521461487 0.0874568447470665
0.8589726686477661 0.3802638649940491 0.09169565886259079
0.8633575439453125 0.3912976086139679 0.11124354600906372
0.8654425144195557 0.406807005405426 0.1391696035861969
0.05809829384088516 0.24526388943195343 0.030720818787813187
0.08136370033025742 0.2756445109844208 0.03374824672937393
0.1071615219116211 0.2901286482810974 0.036167073994874954
0.13214048743247986 0.3039838373661041 0.0384744331240654
0.17878113687038422 0.3183920085430145 0.04043271765112877
0.2230929434299469 0.3320807218551636 0.04229321703314781
0.26972296833992004 0.344216912984848 0.04459085687994957
0.3293658494949341 0.3523576855659485 0.04863539710640907
0.38716498017311096 0.36024680733680725 0.0525549091398716
0.4431205987930298 0.3678842782974243 0.05634940415620804
0.5036389827728271 0.3742036521434784 0.059925343841314316
0.5633252859115601 0.38019177317619324 0.06338565051555634
0.6209139227867126 0.3859694302082062 0.06672433763742447
0.6777254343032837 0.3916691541671753 0.0700179785490036
0.7125702500343323 0.39685431122779846 0.072640560567379
0.7459543347358704 0.4018895626068115 0.07517727464437485
0.7790783047676086 0.40688562393188477 0.07769422233104706
0.8105303049087524 0.41162949800491333 0.08008412271738052
0.827490508556366 0.41549715399742126 0.08400625735521317
0.8373311161994934 0.4190594255924225 0.0889325886964798
0.8468930721282959 0.42252078652381897 0.09371940046548843
0.8561763167381287 0.4258812367916107 0.09836669266223907
0.864468514919281 0.42888298630714417 0.10251786559820175
0.8689113855361938 0.43869346380233765 0.12219639867544174
0.8708916306495667 0.4521876871585846 0.15037818253040314
0.06406188011169434 0.25950899720191956 0.03324566036462784
0.0872277095913887 0.2923320233821869 0.03667312115430832
0.11227869987487793 0.30959954857826233 0.039457809180021286
0.13653284311294556 0.32614877820014954 0.042118996381759644
0.1817045509815216 0.34551677107810974 0.044709108769893646
0.2246207594871521 0.36391764879226685 0.04716989025473595
0.270203173160553 0.3799954056739807 0.04997450113296509
0.32987603545188904 0.38986802101135254 0.05426165834069252
0.3877042233943939 0.39943546056747437 0.05841629207134247
0.44368794560432434 0.4086977243423462 0.06243840977549553
0.5043544769287109 0.4158633053302765 0.06652522832155228
0.5642017722129822 0.4225713312625885 0.07052271068096161
0.6219456791877747 0.42904356122016907 0.07437969744205475
0.6789103746414185 0.4354285001754761 0.07818464189767838
0.7143321633338928 0.44105225801467896 0.08143249899148941
0.7482883334159851 0.4465084671974182 0.08458072692155838
0.7819799184799194 0.451922208070755 0.08770442008972168
0.8139709234237671 0.45706266164779663 0.09067044407129288
0.8313494920730591 0.46119752526283264 0.09472697973251343
0.841561496257782 0.4649684727191925 0.09955388307571411
0.8514842987060547 0.46863266825675964 0.10424408316612244
0.8611178994178772 0.4721900224685669 0.1087975725531578
0.8697230815887451 0.47536763548851013 0.11286495625972748
0.8742213845252991 0.4840085506439209 0.1326684057712555
0.876101553440094 0.49557605385780334 0.16109469532966614
0.0697515606880188 0.2730998396873474 0.03565453737974167
0.09282238781452179 0.30825310945510864 0.03946365416049957
0.1171608492732048 0.32817620038986206 0.04259740561246872
0.14072345197200775 0.34729570150375366 0.0455961637198925
0.18449369072914124 0.37139570713043213 0.04878908768296242
0.22607840597629547 0.39429232478141785 0.05182258412241936
0.2706613540649414 0.41413062810897827 0.0551108792424202
0.3303627669811249 0.4256555438041687 0.05962951481342316
0.3882186710834503 0.436824232339859 0.06400846689939499
0.44422924518585205 0.4476366639137268 0.06824775040149689
0.5050371289253235 0.45560958981513977 0.07282198220491409
0.5650379657745361 0.4630044102668762 0.07733197510242462
0.6229300498962402 0.47013935446739197 0.0816834568977356
0.6800408959388733 0.47717800736427307 0.08597622066736221
0.7160131931304932 0.4832202196121216 0.08982063829898834
0.7505151033401489 0.4890780746936798 0.09355228394269943
0.7847483158111572 0.4948902726173401 0.09725486487150192
0.8172534704208374 0.5004091262817383 0.10077054798603058
0.835031270980835 0.5047988891601562 0.10495531558990479
0.8455976247787476 0.5087689757347107 0.10968735814094543
0.8558647036552429 0.5126266479492188 0.11428537219762802
0.8658325672149658 0.5163718461990356 0.11874936521053314
0.8747363090515137 0.519717276096344 0.12273681908845901
0.8792875409126282 0.5272423624992371 0.14265942573547363
0.8810722231864929 0.5369716286659241 0.17131899297237396
0.0750749260187149 0.28581565618515015 0.037908319383859634
0.0980568528175354 0.3231491148471832 0.042074527591466904
0.12172866612672806 0.3455567955970764 0.04553486034274101
0.14464426040649414 0.3670811057090759 0.04884945973753929
0.1871032565832138 0.39560845494270325 0.052606385201215744
0.2274421900510788 0.4227113723754883 0.05617571994662285
0.27109000086784363 0.44606807827949524 0.059916555881500244
0.33081820607185364 0.4591389298439026 0.06465176492929459
0.38870003819465637 0.47180575132369995 0.06924059242010117
0.44473567605018616 0.48406854271888733 0.07368306070566177
0.5056758522987366 0.4927968382835388 0.0787133276462555
0.5658203363418579 0.5008342862129211 0.08370282500982285
0.6238510012626648 0.5085892081260681 0.088516965508461
0.6810986399650574 0.5162395238876343 0.09326614439487457
0.7175859212875366 0.5226732492446899 0.09766870737075806
0.7525985240936279 0.5289068818092346 0.10194621980190277
0.7873384356498718 0.5350919365882874 0.10619040578603745
0.820324718952179 0.5409647226333618 0.11022036522626877
0.8384760022163391 0.5455930233001709 0.11452510952949524
0.8493738770484924 0.5497494339942932 0.11916839331388474
0.859963059425354 0.5537881255149841 0.12368016690015793
0.8702436685562134 0.5577090978622437 0.12806043028831482
0.8794267177581787 0.5612115263938904 0.13197308778762817
0.8840274810791016 0.5676926374435425 0.15200719237327576
0.885722815990448 0.5757020115852356 0.18088501691818237
0.08057855814695358 0.2989620864391327 0.04023842513561249
0.10346858203411102 0.33854958415031433 0.04477381333708763
0.12645117938518524 0.36352598667144775 0.048571791499853134
0.1486978381872177 0.38753652572631836 0.052212923765182495
0.1898011863231659 0.420641154050827 0.0565529502928257
0.22885218262672424 0.4520927965641022 0.060676269233226776
0.27153319120407104 0.47908705472946167 0.0648849755525589
0.33128902316093445 0.4937562048435211 0.069844089448452
0.3891976773738861 0.5079718828201294 0.07464990764856339
0.4452592730522156 0.5217341780662537 0.07930243760347366
0.5063361525535583 0.5312433838844299 0.08480417728424072
0.5666292309761047 0.5399451851844788 0.09028942883014679
0.6248031854629517 0.5483411550521851 0.09558188915252686
0.6821922063827515 0.5566238164901733 0.100802943110466
0.719211995601654 0.5634623169898987 0.10578254610300064
0.754752516746521 0.5700844526290894 0.11062441021203995
0.790016233921051 0.5766549110412598 0.11542855203151703
0.8234999179840088 0.5828937888145447 0.11999019235372543
0.8420373797416687 0.5877686738967896 0.12441898137331009
0.8532779812812805 0.5921176671981812 0.12897048890590668
0.864200234413147 0.5963435173034668 0.13339310884475708
0.8748041391372681 0.6004462242126465 0.1376868039369583
0.8842760324478149 0.6041109561920166 0.1415221393108368
0.8889279365539551 0.6095126867294312 0.16167151927947998
0.8905308842658997 0.6157439351081848 0.19077499210834503
0.0862625241279602 0.312539279460907 0.04264488443732262
0.10905764251947403 0.3544546663761139 0.04756154865026474
0.13132841885089874 0.3820839822292328 0.05170823261141777
0.15288424491882324 0.40866219997406006 0.05568660423159599
0.19258753955364227 0.44649410247802734 0.06062883511185646
0.23030835390090942 0.48243698477745056 0.06532429158687592
0.2719908654689789 0.5131880044937134 0.07001619040966034
0.3317753076553345 0.5295078158378601 0.07520655542612076
0.3897116184234619 0.5453231334686279 0.08023646473884583
0.4458000361919403 0.5606339573860168 0.08510594815015793
0.5070181488990784 0.5709497928619385 0.09109461307525635
0.5674645900726318 0.5803377032279968 0.09709185361862183
0.6257866024971008 0.5893956422805786 0.10287831723690033
0.6833215951919556 0.5983313918113708 0.10858669131994247
0.7208912968635559 0.6055879592895508 0.11416225880384445
0.7569770812988281 0.6126112937927246 0.11958695948123932
0.7927818298339844 0.6195798516273499 0.12496940046548843
0.8267791867256165 0.6261966824531555 0.13008014857769012
0.8457154035568237 0.6313262581825256 0.1346370428800583
0.8573099970817566 0.6358742117881775 0.1390937864780426
0.8685762286186218 0.6402933597564697 0.14342431724071503
0.8795140385627747 0.6445837020874023 0.14762860536575317
